; generated by PrusaSlicer 2.7.4 on 2024-06-21 at 15:25:21 UTC

; 

; external perimeters extrusion width = 0.45mm
; perimeters extrusion width = 0.45mm
; infill extrusion width = 0.45mm
; solid infill extrusion width = 0.45mm
; top infill extrusion width = 0.40mm
; first layer extrusion width = 0.42mm

M201 X1000 Y1000 Z1000 E5000 ; sets maximum accelerations, mm/sec^2
M203 X200 Y200 Z12 E120 ; sets maximum feedrates, mm / sec
M204 S1250 T1250 ; sets acceleration (S) and retract acceleration (R), mm/sec^2
M205 X8.00 Y8.00 Z0.40 E1.50 ; sets the jerk limits, mm/sec
M205 S0 T0 ; sets the minimum extruding and travel feed rate, mm/sec

; printing object support-slider id:0 copy 0
; stop printing object support-slider id:0 copy 0

;TYPE:Custom
; Initial setups
G90 ; use absolute coordinates
;M83 ; extruder relative mode
;;;;;;;
M82 ; Pour que le resume marche
;;;;;;;
M220 S100 ; reset speed factor to 100%
M221 S100 ; reset extrusion rate to 100%

; Set the heating
M190 S75 ; wait for bed to heat up
M104 S215 ; start nozzle heating but don't wait

; Home
G1 Z3 F3000 ; move z up little to prevent scratching of surface
G28 ; home all axes
;;;;;;;
M420 S1 Z2 ; vu sur le net pour la X2
M92 E437   ; Calibration Extruder
M500       ; Sauvegarde EEPROM
;;;;;;;

G1 X3 Y3 F5000 ; move to corner of the bed to avoid ooze over centre

; Wait for final heating
M109 S215 ; wait for the nozzle to heat up
M190 S75 ; wait for the bed to heat up

; Return to prime position, Prime line routine
G92 E0 ; Reset Extruder
G1 Z3 F3000 ; move z up little to prevent scratching of surface
G1 X10 Y.5 Z0.25 F5000.0 ; Move to start position
G1 X100 Y.5 Z0.25 F1500.0 E15 ; Draw the first line
G1 X100 Y.2 Z0.25 F5000.0 ; Move to side a little
G1 X10 Y.2 Z0.25 F1500.0 E30 ; Draw the second line
G92 E0 ; Reset Extruder
M221 S95
G21 ; set units to millimeters
G90 ; use absolute coordinates
M82 ; use absolute distances for extrusion
G92 E0 ; reset extrusion distance
; Filament gcode
M107 ; disable fan
;LAYER_CHANGE
;Z:0.25
;HEIGHT:0.25
G1 E-2 F2100 ; retract
G92 E0 ; reset extrusion distance
G1 Z.85 F7800 ; lift
G1 X84.918 Y119.701 ; move to first layer point
G1 Z.25 ; move to first layer point
G1 E2 F2100 ;  ; unretract
G92 E0 ; reset extrusion distance
M204 S500 ; adjust acceleration
;TYPE:Skirt/Brim
;WIDTH:0.42
G1 F1200
G1 X86.116 Y119.04 E.0521 ; skirt
G1 X87.195 Y118.624 E.09613 ; skirt
G1 X88.079 Y118.391 E.13094 ; skirt
G1 X90 Y118.19 E.20449 ; skirt
G1 X210.107 Y118.191 E4.77788 ; skirt
G1 X211.92 Y118.391 E4.84733 ; skirt
G1 X213.662 Y118.941 E4.91689 ; skirt
G1 X215.082 Y119.7 E4.9782 ; skirt
G1 X216.506 Y120.841 E5.04768 ; skirt
G1 X217.68 Y122.239 E5.11719 ; skirt
G1 X218.46 Y123.616 E5.17745 ; skirt
G1 X219.003 Y125.134 E5.23884 ; skirt
G1 X219.292 Y126.936 E5.30833 ; skirt
G1 X219.31 Y172.5 E7.0433 ; skirt
G1 X219.253 Y173.519 E7.08216 ; skirt
G1 X219.056 Y174.657 E7.12614 ; skirt
G1 X218.641 Y175.962 E7.17828 ; skirt
G1 X218.159 Y176.982 E7.22124 ; skirt
G1 X217.54 Y177.96 E7.26531 ; skirt
G1 X216.659 Y179.005 E7.31736 ; skirt
G1 X215.822 Y179.763 E7.36036 ; skirt
G1 X214.877 Y180.429 E7.40438 ; skirt
G1 X213.884 Y180.96 E7.44726 ; skirt
G1 X212.805 Y181.376 E7.49129 ; skirt
G1 X211.921 Y181.609 E7.5261 ; skirt
G1 X210 Y181.81 E7.59965 ; skirt
G1 X89.65 Y181.803 E12.18229 ; skirt
G1 X88.528 Y181.692 E12.22522 ; skirt
G1 X87.195 Y181.377 E12.27738 ; skirt
G1 X86.117 Y180.961 E12.32138 ; skirt
G1 X84.918 Y180.3 E12.37351 ; skirt
G1 X83.828 Y179.469 E12.4257 ; skirt
G1 X82.873 Y178.489 E12.4778 ; skirt
G1 X82.2 Y177.582 E12.52081 ; skirt
G1 X81.54 Y176.384 E12.57289 ; skirt
G1 X80.944 Y174.657 E12.64246 ; skirt
G1 X80.747 Y173.519 E12.68644 ; skirt
G1 X80.692 Y172.608 E12.72119 ; skirt
G1 X80.726 Y126.694 E14.46949 ; skirt
G1 X80.944 Y125.343 E14.5216 ; skirt
G1 X81.271 Y124.264 E14.56453 ; skirt
G1 X81.74 Y123.207 E14.60856 ; skirt
G1 X82.32 Y122.238 E14.65156 ; skirt
G1 X83.174 Y121.17 E14.70363 ; skirt
G1 X84.011 Y120.373 E14.74764 ; skirt
G1 X84.87 Y119.736 E14.78836 ; skirt
;WIPE_START
G1 F6240
G1 X84.918 Y119.701 E14.76937 ; wipe and retract
G1 X86.116 Y119.04 E14.33192 ; wipe and retract
G1 X87.195 Y118.624 E13.9622 ; wipe and retract
G1 X88.079 Y118.391 E13.66992 ; wipe and retract
G1 X90 Y118.19 E13.0524 ; wipe and retract
G1 X90.826 Y118.19 E12.78836 ; wipe and retract
;WIPE_END
G92 E0 ; reset extrusion distance
G1 Z.85 F7800 ; move to first perimeter point
; printing object support-slider id:0 copy 0
G92 E0 ; reset extrusion distance
G1 X88.46 Y123.811 ; move to first perimeter point
G1 Z.25 ; move to first perimeter point
G1 E2 F2100 ;  ; unretract
;TYPE:Perimeter
;WIDTH:0.419999
G1 F1200
G1 X89.22 Y123.581 E2.03024 ; perimeter
G1 X90.046 Y123.499 E2.06185 ; perimeter
G1 X210.116 Y123.503 E6.63382 ; perimeter
G1 X210.773 Y123.578 E6.659 ; perimeter
G1 X211.529 Y123.808 E6.68909 ; perimeter
G1 X212.22 Y124.177 E6.71892 ; perimeter
G1 X212.826 Y124.674 E6.74876 ; perimeter
G1 X213.323 Y125.279 E6.77857 ; perimeter
G1 X213.697 Y125.98 E6.80882 ; perimeter
G1 X213.875 Y126.518 E6.8304 ; perimeter
G1 X213.95 Y127.025 E6.84992 ; perimeter
G1 X213.995 Y127.63 E6.87302 ; perimeter
G1 X213.995 Y172.527 E8.58259 ; perimeter
G1 X213.958 Y173.075 E8.6035 ; perimeter
G1 X213.826 Y173.66 E8.62634 ; perimeter
G1 X213.614 Y174.209 E8.64875 ; perimeter
G1 X213.325 Y174.721 E8.67114 ; perimeter
G1 X212.963 Y175.185 E8.69355 ; perimeter
G1 X212.537 Y175.59 E8.71593 ; perimeter
G1 X212.056 Y175.929 E8.73834 ; perimeter
G1 X211.54 Y176.189 E8.76034 ; perimeter
G1 X210.78 Y176.419 E8.79058 ; perimeter
G1 X209.954 Y176.501 E8.82219 ; perimeter
G1 X90.035 Y176.501 E13.38841 ; perimeter
G1 X89.413 Y176.455 E13.41216 ; perimeter
G1 X88.84 Y176.326 E13.43452 ; perimeter
G1 X88.291 Y176.115 E13.45692 ; perimeter
G1 X87.779 Y175.825 E13.47933 ; perimeter
G1 X87.315 Y175.463 E13.50174 ; perimeter
G1 X86.909 Y175.037 E13.52415 ; perimeter
G1 X86.571 Y174.556 E13.54654 ; perimeter
G1 X86.311 Y174.04 E13.56854 ; perimeter
G1 X86.081 Y173.28 E13.59878 ; perimeter
G1 X85.999 Y172.455 E13.63035 ; perimeter
G1 X86.005 Y127.473 E15.34315 ; perimeter
G1 X86.042 Y126.925 E15.36406 ; perimeter
G1 X86.174 Y126.34 E15.3869 ; perimeter
G1 X86.385 Y125.791 E15.4093 ; perimeter
G1 X86.675 Y125.279 E15.43171 ; perimeter
G1 X87.037 Y124.815 E15.45412 ; perimeter
G1 X87.463 Y124.41 E15.4765 ; perimeter
G1 X87.944 Y124.071 E15.49891 ; perimeter
G1 X88.406 Y123.838 E15.51861 ; perimeter
G1 X88.406 Y123.838 F7800 ; move to first perimeter point
G1 X89.148 Y123.22 ; move to first perimeter point
G1 F1200
G1 X90.028 Y123.133 E15.55228 ; perimeter
G1 X210.137 Y123.137 E20.12574 ; perimeter
G1 X210.847 Y123.218 E20.15295 ; perimeter
G1 X211.67 Y123.467 E20.18569 ; perimeter
G1 X212.425 Y123.871 E20.2183 ; perimeter
G1 X213.086 Y124.414 E20.25087 ; perimeter
G1 X213.629 Y125.075 E20.28344 ; perimeter
G1 X214.035 Y125.835 E20.31625 ; perimeter
G1 X214.233 Y126.433 E20.34024 ; perimeter
G1 X214.312 Y126.971 E20.36095 ; perimeter
G1 X214.361 Y127.63 E20.38611 ; perimeter
G1 X214.361 Y172.527 E22.09568 ; perimeter
G1 X214.32 Y173.133 E22.11881 ; perimeter
G1 X214.178 Y173.767 E22.14355 ; perimeter
G1 X213.947 Y174.366 E22.168 ; perimeter
G1 X213.63 Y174.925 E22.19247 ; perimeter
G1 X213.235 Y175.431 E22.21691 ; perimeter
G1 X212.77 Y175.874 E22.24136 ; perimeter
G1 X212.244 Y176.244 E22.26585 ; perimeter
G1 X211.677 Y176.53 E22.29003 ; perimeter
G1 X210.852 Y176.78 E22.32285 ; perimeter
G1 X209.972 Y176.867 E22.35652 ; perimeter
G1 X90.021 Y176.867 E26.92396 ; perimeter
G1 X89.36 Y176.819 E26.9492 ; perimeter
G1 X88.733 Y176.678 E26.97367 ; perimeter
G1 X88.134 Y176.447 E26.99812 ; perimeter
G1 X87.575 Y176.13 E27.02259 ; perimeter
G1 X87.068 Y175.735 E27.04706 ; perimeter
G1 X86.625 Y175.27 E27.07151 ; perimeter
G1 X86.256 Y174.745 E27.09594 ; perimeter
G1 X85.97 Y174.177 E27.12016 ; perimeter
G1 X85.72 Y173.352 E27.15298 ; perimeter
G1 X85.633 Y172.473 E27.18661 ; perimeter
G1 X85.639 Y127.473 E28.9001 ; perimeter
G1 X85.68 Y126.867 E28.92323 ; perimeter
G1 X85.822 Y126.233 E28.94797 ; perimeter
G1 X86.053 Y125.634 E28.97242 ; perimeter
G1 X86.37 Y125.075 E28.99689 ; perimeter
G1 X86.765 Y124.569 E29.02133 ; perimeter
G1 X87.23 Y124.126 E29.04578 ; perimeter
G1 X87.755 Y123.756 E29.07024 ; perimeter
G1 X88.323 Y123.47 E29.09446 ; perimeter
G1 X89.091 Y123.237 E29.12502 ; perimeter
G1 X89.077 Y122.859 F7800 ; move to first perimeter point
;TYPE:External perimeter
G1 F1200
G1 X90.01 Y122.767 E29.16072 ; perimeter
G1 X210.158 Y122.77 E33.73566 ; perimeter
G1 X210.922 Y122.858 E33.76494 ; perimeter
G1 X211.811 Y123.127 E33.80031 ; perimeter
G1 X212.629 Y123.565 E33.83564 ; perimeter
G1 X213.346 Y124.153 E33.87095 ; perimeter
G1 X213.935 Y124.87 E33.90628 ; perimeter
G1 X214.373 Y125.69 E33.94168 ; perimeter
G1 X214.59 Y126.348 E33.96806 ; perimeter
G1 X214.727 Y127.272 E34.00363 ; perimeter
G1 X214.727 Y127.63 E34.01726 ; perimeter
G1 X214.728 Y172.527 E35.72683 ; perimeter
G1 X214.682 Y173.192 E35.75221 ; perimeter
G1 X214.529 Y173.874 E35.77882 ; perimeter
G1 X214.279 Y174.523 E35.8053 ; perimeter
G1 X213.935 Y175.129 E35.83183 ; perimeter
G1 X213.507 Y175.678 E35.85834 ; perimeter
G1 X213.003 Y176.158 E35.88484 ; perimeter
G1 X212.433 Y176.559 E35.91138 ; perimeter
G1 X211.813 Y176.872 E35.93783 ; perimeter
G1 X210.923 Y177.141 E35.97323 ; perimeter
G1 X209.99 Y177.233 E36.00893 ; perimeter
G1 X90.008 Y177.234 E40.57755 ; perimeter
G1 X89.306 Y177.182 E40.60435 ; perimeter
G1 X88.626 Y177.029 E40.63089 ; perimeter
G1 X87.977 Y176.779 E40.65737 ; perimeter
G1 X87.371 Y176.436 E40.68388 ; perimeter
G1 X86.822 Y176.007 E40.71041 ; perimeter
G1 X86.341 Y175.503 E40.73694 ; perimeter
G1 X85.941 Y174.934 E40.76342 ; perimeter
G1 X85.628 Y174.313 E40.7899 ; perimeter
G1 X85.358 Y173.424 E40.82528 ; perimeter
G1 X85.267 Y172.491 E40.86097 ; perimeter
G1 X85.272 Y127.473 E42.57515 ; perimeter
G1 X85.318 Y126.808 E42.60053 ; perimeter
G1 X85.471 Y126.126 E42.62714 ; perimeter
G1 X85.721 Y125.477 E42.65362 ; perimeter
G1 X86.065 Y124.871 E42.68015 ; perimeter
G1 X86.493 Y124.322 E42.70666 ; perimeter
G1 X86.997 Y123.842 E42.73316 ; perimeter
G1 X87.567 Y123.441 E42.7597 ; perimeter
G1 X88.187 Y123.128 E42.78615 ; perimeter
G1 X89.019 Y122.876 E42.81925 ; perimeter
;WIPE_START
G1 F6240
G1 X89.077 Y122.859 E42.79993 ; wipe and retract
G1 X90.01 Y122.767 E42.50019 ; wipe and retract
G1 X95.268 Y122.767 E40.81925 ; wipe and retract
;WIPE_END
G92 E0 ; reset extrusion distance
G1 Z.85 F7800 ; move to first perimeter point
G1 X209.25 Y136.953 ; move to first perimeter point
G1 Z.25 ; move to first perimeter point
G1 E2 F2100 ;  ; unretract
;TYPE:Perimeter
G1 F1200
G1 X209.076 Y136.874 E2.00728 ; perimeter
G1 X208.585 Y136.549 E2.0297 ; perimeter
G1 X208.238 Y136.114 E2.05089 ; perimeter
G1 X208.068 Y135.814 E2.06402 ; perimeter
G1 X207.93 Y135.285 E2.08484 ; perimeter
G1 X207.903 Y135.098 E2.09203 ; perimeter
G1 X207.982 Y134.458 E2.11658 ; perimeter
G1 X208.106 Y134.117 E2.1304 ; perimeter
G1 X208.427 Y133.611 E2.15322 ; perimeter
G1 X208.978 Y133.177 E2.17993 ; perimeter
G1 X209.309 Y133.028 E2.19375 ; perimeter
G1 X209.812 Y132.915 E2.21338 ; perimeter
G1 X210.13 Y132.915 E2.22549 ; perimeter
G1 X210.753 Y133.04 E2.24969 ; perimeter
G1 X211.305 Y133.368 E2.27414 ; perimeter
G1 X211.552 Y133.6 E2.28704 ; perimeter
G1 X211.805 Y133.945 E2.30333 ; perimeter
G1 X211.954 Y134.26 E2.3166 ; perimeter
G1 X212.098 Y134.941 E2.3431 ; perimeter
G1 X212.018 Y135.541 E2.36615 ; perimeter
G1 X211.893 Y135.882 E2.37998 ; perimeter
G1 X211.649 Y136.282 E2.39782 ; perimeter
G1 X211.402 Y136.548 E2.41164 ; perimeter
G1 X210.853 Y136.918 E2.43685 ; perimeter
G1 X210.233 Y137.076 E2.46121 ; perimeter
G1 X209.87 Y137.085 E2.47504 ; perimeter
G1 X209.312 Y136.981 E2.49665 ; perimeter
G1 X209.305 Y136.978 E2.49694 ; perimeter
G1 X209.305 Y136.978 F7800 ; move to first perimeter point
G1 X209.369 Y136.603 ; move to first perimeter point
G1 F1200
G1 X208.892 Y136.323 E2.518 ; perimeter
G1 X208.743 Y136.183 E2.52579 ; perimeter
G1 X208.451 Y135.776 E2.54486 ; perimeter
G1 X208.269 Y135.083 E2.57214 ; perimeter
G1 X208.344 Y134.513 E2.59403 ; perimeter
G1 X208.419 Y134.308 E2.60234 ; perimeter
G1 X208.709 Y133.845 E2.62314 ; perimeter
G1 X209.192 Y133.475 E2.64631 ; perimeter
G1 X209.391 Y133.385 E2.65463 ; perimeter
G1 X209.903 Y133.271 E2.6746 ; perimeter
G1 X210.528 Y133.357 E2.69862 ; perimeter
G1 X210.727 Y133.434 E2.70674 ; perimeter
G1 X211.108 Y133.677 E2.72395 ; perimeter
G1 X211.257 Y133.816 E2.73171 ; perimeter
G1 X211.51 Y134.162 E2.74803 ; perimeter
G1 X211.599 Y134.351 E2.75598 ; perimeter
G1 X211.731 Y134.941 E2.779 ; perimeter
G1 X211.655 Y135.486 E2.79995 ; perimeter
G1 X211.581 Y135.691 E2.80825 ; perimeter
G1 X211.336 Y136.091 E2.82611 ; perimeter
G1 X211.188 Y136.251 E2.83441 ; perimeter
G1 X210.706 Y136.582 E2.85667 ; perimeter
G1 X210.152 Y136.719 E2.8784 ; perimeter
G1 X209.934 Y136.724 E2.8867 ; perimeter
G1 X209.422 Y136.63 E2.90652 ; perimeter
G1 X209.422 Y136.63 F7800 ; move to first perimeter point
G1 X209.536 Y136.282 ; move to first perimeter point
;TYPE:External perimeter
G1 F1200
G1 X209.088 Y136.014 E2.9264 ; perimeter
G1 X208.779 Y135.611 E2.94574 ; perimeter
G1 X208.635 Y135.067 E2.96717 ; perimeter
G1 X208.707 Y134.568 E2.98637 ; perimeter
G1 X208.976 Y134.099 E3.00696 ; perimeter
G1 X209.406 Y133.772 E3.02753 ; perimeter
G1 X209.93 Y133.638 E3.04812 ; perimeter
G1 X210.464 Y133.718 E3.06868 ; perimeter
G1 X210.912 Y133.986 E3.08856 ; perimeter
G1 X211.244 Y134.441 E3.11001 ; perimeter
G1 X211.365 Y134.941 E3.1296 ; perimeter
G1 X211.292 Y135.436 E3.14865 ; perimeter
G1 X211.024 Y135.9 E3.16905 ; perimeter
G1 X210.594 Y136.227 E3.18962 ; perimeter
G1 X210.07 Y136.361 E3.21021 ; perimeter
G1 X209.595 Y136.291 E3.22849 ; perimeter
;WIPE_START
G1 F6240
G1 X209.536 Y136.282 E3.20941 ; wipe and retract
G1 X209.088 Y136.014 E3.04251 ; wipe and retract
G1 X208.779 Y135.611 E2.88015 ; wipe and retract
G1 X208.635 Y135.067 E2.70024 ; wipe and retract
G1 X208.707 Y134.568 E2.53905 ; wipe and retract
G1 X208.976 Y134.099 E2.36619 ; wipe and retract
G1 X209.406 Y133.772 E2.19348 ; wipe and retract
G1 X209.93 Y133.638 E2.02056 ; wipe and retract
G1 X210.464 Y133.718 E1.84793 ; wipe and retract
G1 X210.912 Y133.986 E1.68103 ; wipe and retract
G1 X211.244 Y134.441 E1.50095 ; wipe and retract
G1 X211.365 Y134.941 E1.33648 ; wipe and retract
G1 X211.316 Y135.275 E1.22849 ; wipe and retract
;WIPE_END
G92 E0 ; reset extrusion distance
G1 Z.85 F7800 ; move to first perimeter point
G1 X196.38 Y127.916 ; move to first perimeter point
G1 Z.25 ; move to first perimeter point
G1 E2 F2100 ;  ; unretract
;TYPE:Perimeter
G1 F1200
G1 X196.183 Y128.085 E2.00988 ; perimeter
G1 X195.787 Y128.337 E2.02775 ; perimeter
G1 X195.231 Y128.476 E2.04957 ; perimeter
G1 X195.027 Y128.499 E2.05739 ; perimeter
G1 X194.445 Y128.41 E2.07981 ; perimeter
G1 X194.107 Y128.278 E2.09363 ; perimeter
G1 X193.605 Y127.932 E2.11685 ; perimeter
G1 X193.269 Y127.483 E2.1382 ; perimeter
G1 X193.128 Y127.175 E2.1511 ; perimeter
G1 X193.004 Y126.615 E2.17294 ; perimeter
G1 X193.076 Y125.993 E2.19678 ; perimeter
G1 X193.2 Y125.652 E2.2106 ; perimeter
G1 X193.424 Y125.285 E2.22697 ; perimeter
G1 X193.671 Y125.019 E2.24079 ; perimeter
G1 X194.02 Y124.769 E2.25714 ; perimeter
G1 X194.35 Y124.619 E2.27094 ; perimeter
G1 X194.973 Y124.501 E2.29508 ; perimeter
G1 X195.555 Y124.589 E2.31749 ; perimeter
G1 X195.893 Y124.722 E2.33132 ; perimeter
G1 X196.253 Y124.955 E2.34765 ; perimeter
G1 X196.513 Y125.208 E2.36146 ; perimeter
G1 X196.755 Y125.563 E2.37782 ; perimeter
G1 X196.891 Y125.875 E2.39078 ; perimeter
G1 X196.998 Y126.427 E2.41219 ; perimeter
G1 X196.924 Y127.007 E2.43445 ; perimeter
G1 X196.799 Y127.348 E2.44828 ; perimeter
G1 X196.519 Y127.796 E2.4684 ; perimeter
G1 X196.425 Y127.877 E2.47312 ; perimeter
G1 X196.425 Y127.877 F7800 ; move to first perimeter point
G1 X196.162 Y127.632 ; move to first perimeter point
G1 F1200
