; generated by PrusaSlicer 2.6.1 on 2024-04-13 at 08:41:29 UTC

; 

; external perimeters extrusion width = 0.45mm
; perimeters extrusion width = 0.45mm
; infill extrusion width = 0.45mm
; solid infill extrusion width = 0.45mm
; top infill extrusion width = 0.40mm
; support material extrusion width = 0.35mm
; first layer extrusion width = 0.42mm

M201 X1000 Y1000 Z1000 E5000 ; sets maximum accelerations, mm/sec^2
M203 X200 Y200 Z12 E120 ; sets maximum feedrates, mm / sec
M204 S1250 T1250 ; sets acceleration (S) and retract acceleration (R), mm/sec^2
M205 X8.00 Y8.00 Z0.40 E1.50 ; sets the jerk limits, mm/sec
M205 S0 T0 ; sets the minimum extruding and travel feed rate, mm/sec
;TYPE:Custom
; Initial setups
G90 ; use absolute coordinates
M83 ; extruder relative mode
M220 S100 ; reset speed factor to 100%
M221 S100 ; reset extrusion rate to 100%

; Set the heating
M190 S65 ; wait for bed to heat up
M104 S210 ; start nozzle heating but don't wait

; Home
G1 Z3 F3000 ; move z up little to prevent scratching of surface
G28 ; home all axes
M420 S1 Z2 ;  vu sur le net pour la X2
G1 X3 Y3 F5000 ; move to corner of the bed to avoid ooze over centre

; Wait for final heating
M109 S210 ; wait for the nozzle to heat up
M190 S65 ; wait for the bed to heat up

; Return to prime position, Prime line routine
G92 E0 ; Reset Extruder
G1 Z3 F3000 ; move z up little to prevent scratching of surface
G1 X10 Y.5 Z0.25 F5000.0 ; Move to start position
G1 X100 Y.5 Z0.25 F1500.0 E15 ; Draw the first line
G1 X100 Y.2 Z0.25 F5000.0 ; Move to side a little
G1 X10 Y.2 Z0.25 F1500.0 E30 ; Draw the second line
G92 E0 ; Reset Extruder
M221 S95
G21 ; set units to millimeters
G90 ; use absolute coordinates
M83 ; use relative distances for extrusion
; Filament gcode
M107 ; disable fan
;LAYER_CHANGE
;Z:0.25
;HEIGHT:0.25
;BEFORE_LAYER_CHANGE
;0.25
G92 E0
G1 E-.8 F2100 ; retract
G1 Z.6 F7800 ; lift Z
;AFTER_LAYER_CHANGE
;0.25
G1 X129.156 Y115.928 ; move to first skirt point
G1 Z.25 ; restore layer Z
G1 E.8 F2100 ;  ; unretract
M204 S500 ; adjust acceleration
;TYPE:Skirt/Brim
;WIDTH:0.42
G1 F1200
G1 X130.065 Y115.085 E.04721 ; skirt
G1 X131.18 Y114.394 E.04995 ; skirt
G1 X132.252 Y113.979 E.04377 ; skirt
G1 X133.274 Y113.768 E.03974 ; skirt
G1 X134.084 Y113.716 E.03091 ; skirt
G1 X166.385 Y113.734 E1.22994 ; skirt
G1 X167.268 Y113.859 E.03396 ; skirt
G1 X168.231 Y114.14 E.0382 ; skirt
G1 X169.382 Y114.704 E.04881 ; skirt
G1 X170.39 Y115.467 E.04814 ; skirt
G1 X171.074 Y116.198 E.03812 ; skirt
G1 X171.612 Y116.976 E.03602 ; skirt
G1 X171.992 Y117.725 E.03198 ; skirt
G1 X172.269 Y118.496 E.0312 ; skirt
G1 X172.469 Y119.428 E.0363 ; skirt
G1 X172.534 Y120.332 E.03451 ; skirt
G1 X172.534 Y159.65 E1.49714 ; skirt
G1 X172.408 Y160.937 E.04924 ; skirt
G1 X172.176 Y161.799 E.03399 ; skirt
G1 X171.857 Y162.569 E.03174 ; skirt
G1 X171.41 Y163.344 E.03407 ; skirt
G1 X170.849 Y164.067 E.03485 ; skirt
G1 X169.615 Y165.146 E.06242 ; skirt
G1 X139.681 Y185.416 E1.37656 ; skirt
G1 X138.897 Y185.796 E.03317 ; skirt
G1 X138.039 Y186.078 E.03439 ; skirt
G1 X136.412 Y186.284 E.06245 ; skirt
G1 X133.626 Y186.267 E.10609 ; skirt
G1 X132.813 Y186.158 E.03123 ; skirt
G1 X131.953 Y185.926 E.03392 ; skirt
G1 X131.18 Y185.607 E.03184 ; skirt
G1 X130.245 Y185.047 E.0415 ; skirt
G1 X124.878 Y181.179 E.25191 ; skirt
G1 X123.315 Y179.563 E.08561 ; skirt
G1 X122.411 Y177.505 E.08559 ; skirt
G1 X122.234 Y176.014 E.05717 ; skirt
G1 X122.28 Y162.435 E.51706 ; skirt
G1 X127.515 Y119.545 E1.64527 ; skirt
G1 X127.824 Y118.202 E.05247 ; skirt
G1 X128.144 Y117.429 E.03186 ; skirt
G1 X128.608 Y116.63 E.03518 ; skirt
G1 X129.119 Y115.975 E.03163 ; skirt
M204 S1000 ; adjust acceleration
; printing object fixation.switch id:0 copy 0
;WIPE_START
G1 F6240
G1 X130.065 Y115.085 E-.41526 ; wipe and retract
G1 X131.088 Y114.451 E-.38474 ; wipe and retract
;WIPE_END
G1 Z.85 F7800 ; lift Z
G1 X133.397 Y176.014 ; move to first support material point
G1 Z.25 ; restore layer Z
G1 E.8 F2100 ;  ; unretract
M204 S500 ; adjust acceleration
;TYPE:Support material
G1 F1200
G1 X128.6 Y176.014 E.18266 ; support material
G1 X128.6 Y163.206 E.4877 ; support material
G1 X133.397 Y163.206 E.18266 ; support material
G1 X133.397 Y175.959 E.4856 ; support material
M204 S1000 ; adjust acceleration
G1 X132.904 Y175.849 F7800 ; move to first support material point
M204 S500 ; adjust acceleration
G1 F1200
G1 X132.904 Y163.536 E.46885 ; support material
G1 X132.497 Y163.536 E.0155 ; support material
G1 X132.497 Y175.685 E.4626 ; support material
G1 X132.09 Y175.685 E.0155 ; support material
G1 X132.09 Y163.536 E.4626 ; support material
G1 X131.683 Y163.536 E.0155 ; support material
G1 X131.683 Y175.685 E.4626 ; support material
G1 X131.275 Y175.685 E.01554 ; support material
G1 X131.275 Y163.536 E.4626 ; support material
G1 X130.868 Y163.536 E.0155 ; support material
G1 X130.868 Y175.685 E.4626 ; support material
G1 X130.461 Y175.685 E.0155 ; support material
G1 X130.461 Y163.536 E.4626 ; support material
G1 X130.054 Y163.536 E.0155 ; support material
G1 X130.054 Y175.685 E.4626 ; support material
G1 X129.647 Y175.685 E.0155 ; support material
G1 X129.647 Y163.536 E.4626 ; support material
G1 X129.24 Y163.536 E.0155 ; support material
G1 X129.24 Y175.849 E.46885 ; support material
M204 S1000 ; adjust acceleration
;WIPE_START
G1 F6240
G1 X129.24 Y173.347 E-.8 ; wipe and retract
;WIPE_END
G1 Z.85 F7800 ; lift Z
G1 X141.408 Y176.014 ; move to first support material point
G1 Z.25 ; restore layer Z
G1 E.8 F2100 ;  ; unretract
M204 S500 ; adjust acceleration
G1 F1200
G1 X137.103 Y176.014 E.16392 ; support material
G1 X137.109 Y164.776 E.42792 ; support material
G1 X137.152 Y164.329 E.0171 ; support material
G1 X137.238 Y163.889 E.01707 ; support material
G1 X137.366 Y163.459 E.01708 ; support material
G1 X137.464 Y163.206 E.01033 ; support material
G1 X141.408 Y163.206 E.15018 ; support material
G1 X141.408 Y175.959 E.4856 ; support material
M204 S1000 ; adjust acceleration
G1 X141.045 Y175.849 F7800 ; move to first support material point
M204 S500 ; adjust acceleration
G1 F1200
G1 X141.045 Y163.536 E.46885 ; support material
G1 X140.638 Y163.536 E.0155 ; support material
G1 X140.638 Y175.685 E.4626 ; support material
G1 X140.231 Y175.685 E.0155 ; support material
G1 X140.231 Y163.536 E.4626 ; support material
G1 X139.824 Y163.536 E.0155 ; support material
G1 X139.824 Y175.685 E.4626 ; support material
G1 X139.417 Y175.685 E.0155 ; support material
G1 X139.417 Y163.536 E.4626 ; support material
G1 X139.01 Y163.536 E.0155 ; support material
G1 X139.01 Y175.685 E.4626 ; support material
G1 X138.602 Y175.685 E.01554 ; support material
G1 X138.602 Y163.536 E.4626 ; support material
G1 X138.195 Y163.536 E.0155 ; support material
G1 X138.195 Y175.685 E.4626 ; support material
G1 X137.788 Y175.685 E.0155 ; support material
G1 X137.788 Y163.371 E.46889 ; support material
M204 S1000 ; adjust acceleration
;WIPE_START
G1 F6240
G1 X137.788 Y165.873 E-.8 ; wipe and retract
;WIPE_END
G1 Z.85 F7800 ; lift Z
G1 X136.082 Y162.989 ; move to first perimeter point
G1 Z.25 ; restore layer Z
G1 E.8 F2100 ;  ; unretract
M204 S500 ; adjust acceleration
;TYPE:Perimeter
;WIDTH:0.419999
G1 F1200
G1 X136.041 Y163.087 E.00405 ; perimeter
G1 X135.781 Y164.197 E.04341 ; perimeter
G1 X135.725 Y164.999 E.03061 ; perimeter
G1 X135.718 Y178.974 E.53213 ; perimeter
G1 X134.775 Y178.975 E.03591 ; perimeter
G1 X134.775 Y121.025 E2.20659 ; perimeter
G1 X165.225 Y121.025 E1.15946 ; perimeter
G1 X165.225 Y158.975 E1.44504 ; perimeter
G1 X141.615 Y158.976 E.89901 ; perimeter
G1 X140.717 Y159.066 E.03436 ; perimeter
G1 X139.966 Y159.247 E.02942 ; perimeter
G1 X139.278 Y159.508 E.02802 ; perimeter
G1 X138.511 Y159.922 E.03319 ; perimeter
G1 X137.796 Y160.459 E.03405 ; perimeter
G1 X136.998 Y161.302 E.0442 ; perimeter
G1 X136.385 Y162.263 E.0434 ; perimeter
G1 X136.105 Y162.933 E.02765 ; perimeter
M204 S1000 ; adjust acceleration
G1 X136.418 Y163.124 F7800 ; move to first perimeter point
M204 S500 ; adjust acceleration
G1 F1200
G1 X136.146 Y164.223 E.04311 ; perimeter
G1 X136.092 Y164.999 E.02962 ; perimeter
G1 X136.084 Y179.341 E.54611 ; perimeter
G1 X134.408 Y179.341 E.06382 ; perimeter
G1 X134.408 Y120.658 E2.23451 ; perimeter
G1 X165.592 Y120.659 E1.18741 ; perimeter
G1 X165.592 Y159.342 E1.47295 ; perimeter
G1 X141.615 Y159.342 E.91299 ; perimeter
G1 X140.799 Y159.423 E.03122 ; perimeter
G1 X140.092 Y159.591 E.02767 ; perimeter
G1 X139.448 Y159.832 E.02618 ; perimeter
G1 X138.726 Y160.219 E.03119 ; perimeter
G1 X138.059 Y160.714 E.03163 ; perimeter
G1 X137.305 Y161.503 E.04156 ; perimeter
G1 X136.721 Y162.409 E.04104 ; perimeter
G1 X136.441 Y163.069 E.0273 ; perimeter
M204 S1000 ; adjust acceleration
G1 X136.752 Y163.262 F7800 ; move to first perimeter point
M204 S500 ; adjust acceleration
;TYPE:External perimeter
G1 F1200
G1 X136.512 Y164.25 E.03871 ; perimeter
G1 X136.458 Y164.999 E.02859 ; perimeter
G1 X136.45 Y179.641 E.55753 ; perimeter
G1 X136.385 Y179.707 E.00353 ; perimeter
G1 X134.096 Y179.701 E.08716 ; perimeter
G1 X134.042 Y179.621 E.00368 ; perimeter
G1 X134.049 Y120.346 E2.25705 ; perimeter
G1 X134.129 Y120.292 E.00368 ; perimeter
G1 X165.843 Y120.293 E1.20759 ; perimeter
G1 X165.933 Y120.322 E.0036 ; perimeter
G1 X165.958 Y120.408 E.00341 ; perimeter
G1 X165.951 Y159.654 E1.49439 ; perimeter
G1 X165.871 Y159.708 E.00368 ; perimeter
G1 X141.615 Y159.708 E.92361 ; perimeter
G1 X140.882 Y159.78 E.02805 ; perimeter
G1 X140.218 Y159.935 E.02596 ; perimeter
G1 X139.619 Y160.157 E.02432 ; perimeter
G1 X138.942 Y160.515 E.02916 ; perimeter
G1 X138.321 Y160.97 E.02931 ; perimeter
G1 X137.611 Y161.703 E.03886 ; perimeter
G1 X137.057 Y162.555 E.0387 ; perimeter
G1 X136.776 Y163.207 E.02703 ; perimeter
M204 S1000 ; adjust acceleration
G1 X136.36 Y163.34 F7800 ; move inwards before travel
;WIPE_START
G1 F6240
G1 X136.512 Y164.25 E-.34398 ; wipe and retract
G1 X136.458 Y164.999 E-.24009 ; wipe and retract
G1 X136.458 Y165.674 E-.21593 ; wipe and retract
;WIPE_END
G1 Z.85 F7800 ; lift Z
G1 X164.371 Y121.135 ; move to first infill point
G1 Z.25 ; restore layer Z
G1 E.8 F2100 ;  ; unretract
M204 S500 ; adjust acceleration
;TYPE:Solid infill
;WIDTH:0.421988
G1 F1200
G1 X164.951 Y121.715 E.0314 ; infill
G1 X164.951 Y122.236 E.01995 ; infill
G1 X164.015 Y121.3 E.05068 ; infill
G1 X163.494 Y121.3 E.01995 ; infill
G1 X164.951 Y122.757 E.07889 ; infill
G1 X164.951 Y123.278 E.01995 ; infill
G1 X162.973 Y121.3 E.10709 ; infill
G1 X162.452 Y121.3 E.01995 ; infill
G1 X164.951 Y123.799 E.1353 ; infill
G1 X164.951 Y124.32 E.01995 ; infill
G1 X161.931 Y121.3 E.16351 ; infill
G1 X161.41 Y121.3 E.01995 ; infill
G1 X164.951 Y124.841 E.19172 ; infill
G1 X164.951 Y125.362 E.01995 ; infill
G1 X160.889 Y121.3 E.21993 ; infill
G1 X160.368 Y121.3 E.01995 ; infill
G1 X164.951 Y125.883 E.24813 ; infill
G1 X164.951 Y126.403 E.01991 ; infill
G1 X159.847 Y121.3 E.27631 ; infill
G1 X159.326 Y121.3 E.01995 ; infill
G1 X164.951 Y126.924 E.30452 ; infill
G1 X164.951 Y127.445 E.01995 ; infill
G1 X158.805 Y121.3 E.33273 ; infill
G1 X158.284 Y121.3 E.01995 ; infill
G1 X164.951 Y127.966 E.36094 ; infill
G1 X164.951 Y128.487 E.01995 ; infill
G1 X157.763 Y121.3 E.38915 ; infill
G1 X157.243 Y121.3 E.01991 ; infill
G1 X164.951 Y129.008 E.41733 ; infill
G1 X164.951 Y129.529 E.01995 ; infill
G1 X156.722 Y121.3 E.44554 ; infill
G1 X156.201 Y121.3 E.01995 ; infill
G1 X164.951 Y130.05 E.47374 ; infill
G1 X164.951 Y130.571 E.01995 ; infill
G1 X155.68 Y121.3 E.50195 ; infill
G1 X155.159 Y121.3 E.01995 ; infill
G1 X164.951 Y131.092 E.53016 ; infill
G1 X164.951 Y131.613 E.01995 ; infill
G1 X154.638 Y121.3 E.55837 ; infill
G1 X154.117 Y121.3 E.01995 ; infill
G1 X164.951 Y132.133 E.58655 ; infill
G1 X164.951 Y132.654 E.01995 ; infill
G1 X153.596 Y121.3 E.61476 ; infill
G1 X153.075 Y121.3 E.01995 ; infill
G1 X164.951 Y133.175 E.64297 ; infill
G1 X164.951 Y133.696 E.01995 ; infill
G1 X152.554 Y121.3 E.67117 ; infill
G1 X152.033 Y121.3 E.01995 ; infill
G1 X164.951 Y134.217 E.69938 ; infill
G1 X164.951 Y134.738 E.01995 ; infill
G1 X151.512 Y121.3 E.72759 ; infill
G1 X150.992 Y121.3 E.01991 ; infill
G1 X164.951 Y135.259 E.75577 ; infill
G1 X164.951 Y135.78 E.01995 ; infill
G1 X150.471 Y121.3 E.78398 ; infill
G1 X149.95 Y121.3 E.01995 ; infill
G1 X164.951 Y136.301 E.81219 ; infill
G1 X164.951 Y136.822 E.01995 ; infill
G1 X149.429 Y121.3 E.84039 ; infill
G1 X148.908 Y121.3 E.01995 ; infill
G1 X164.951 Y137.343 E.8686 ; infill
G1 X164.951 Y137.863 E.01991 ; infill
G1 X148.387 Y121.3 E.89678 ; infill
G1 X147.866 Y121.3 E.01995 ; infill
G1 X164.951 Y138.384 E.92499 ; infill
G1 X164.951 Y138.905 E.01995 ; infill
G1 X147.345 Y121.3 E.9532 ; infill
G1 X146.824 Y121.3 E.01995 ; infill
G1 X164.951 Y139.426 E.98141 ; infill
G1 X164.951 Y139.947 E.01995 ; infill
G1 X146.303 Y121.3 E1.00962 ; infill
G1 X145.782 Y121.3 E.01995 ; infill
G1 X164.951 Y140.468 E1.03782 ; infill
G1 X164.951 Y140.989 E.01995 ; infill
G1 X145.261 Y121.3 E1.06603 ; infill
G1 X144.74 Y121.3 E.01995 ; infill
G1 X164.951 Y141.51 E1.09424 ; infill
G1 X164.951 Y142.031 E.01995 ; infill
G1 X144.22 Y121.3 E1.12242 ; infill
G1 X143.699 Y121.3 E.01995 ; infill
G1 X164.951 Y142.552 E1.15063 ; infill
G1 X164.951 Y143.073 E.01995 ; infill
G1 X143.178 Y121.3 E1.17884 ; infill
G1 X142.657 Y121.3 E.01995 ; infill
G1 X164.951 Y143.593 E1.20702 ; infill
G1 X164.951 Y144.114 E.01995 ; infill
G1 X142.136 Y121.3 E1.23523 ; infill
G1 X141.615 Y121.3 E.01995 ; infill
G1 X164.951 Y144.635 E1.26343 ; infill
G1 X164.951 Y145.156 E.01995 ; infill
G1 X141.094 Y121.3 E1.29164 ; infill
G1 X140.573 Y121.3 E.01995 ; infill
G1 X164.951 Y145.677 E1.31985 ; infill
G1 X164.951 Y146.198 E.01995 ; infill
G1 X140.052 Y121.3 E1.34806 ; infill
G1 X139.531 Y121.3 E.01995 ; infill
G1 X164.951 Y146.719 E1.37627 ; infill
G1 X164.951 Y147.24 E.01995 ; infill
G1 X139.01 Y121.3 E1.40447 ; infill
G1 X138.489 Y121.3 E.01995 ; infill
G1 X164.951 Y147.761 E1.43268 ; infill
G1 X164.951 Y148.282 E.01995 ; infill
G1 X137.968 Y121.3 E1.46089 ; infill
G1 X137.448 Y121.3 E.01991 ; infill
G1 X164.951 Y148.803 E1.48907 ; infill
G1 X164.951 Y149.323 E.01991 ; infill
G1 X136.927 Y121.3 E1.51725 ; infill
G1 X136.406 Y121.3 E.01995 ; infill
G1 X164.951 Y149.844 E1.54546 ; infill
G1 X164.951 Y150.365 E.01995 ; infill
G1 X135.885 Y121.3 E1.57367 ; infill
G1 X135.364 Y121.3 E.01995 ; infill
G1 X164.951 Y150.886 E1.60188 ; infill
G1 X164.951 Y151.407 E.01995 ; infill
G1 X135.049 Y121.506 E1.61893 ; infill
G1 X135.049 Y122.027 E.01995 ; infill
G1 X164.951 Y151.928 E1.61893 ; infill
G1 X164.951 Y152.449 E.01995 ; infill
G1 X135.049 Y122.548 E1.61893 ; infill
G1 X135.049 Y123.069 E.01995 ; infill
G1 X164.951 Y152.97 E1.61893 ; infill
G1 X164.951 Y153.491 E.01995 ; infill
G1 X135.049 Y123.59 E1.61893 ; infill
G1 X135.049 Y124.111 E.01995 ; infill
G1 X164.951 Y154.012 E1.61893 ; infill
G1 X164.951 Y154.533 E.01995 ; infill
G1 X135.049 Y124.631 E1.61896 ; infill
G1 X135.049 Y125.152 E.01995 ; infill
G1 X164.951 Y155.053 E1.61893 ; infill
G1 X164.951 Y155.574 E.01995 ; infill
G1 X135.049 Y125.673 E1.61893 ; infill
G1 X135.049 Y126.194 E.01995 ; infill
G1 X164.951 Y156.095 E1.61893 ; infill
G1 X164.951 Y156.616 E.01995 ; infill
G1 X135.049 Y126.715 E1.61893 ; infill
G1 X135.049 Y127.236 E.01995 ; infill
G1 X164.951 Y157.137 E1.61893 ; infill
G1 X164.951 Y157.658 E.01995 ; infill
G1 X135.049 Y127.757 E1.61893 ; infill
G1 X135.049 Y128.278 E.01995 ; infill
G1 X164.951 Y158.179 E1.61893 ; infill
G1 X164.951 Y158.7 E.01995 ; infill
G1 X135.049 Y128.799 E1.61893 ; infill
G1 X135.049 Y129.32 E.01995 ; infill
G1 X164.43 Y158.701 E1.59075 ; infill
G1 X163.909 Y158.701 E.01995 ; infill
G1 X135.049 Y129.841 E1.56254 ; infill
G1 X135.049 Y130.361 E.01991 ; infill
G1 X163.389 Y158.701 E1.53439 ; infill
G1 X162.868 Y158.701 E.01995 ; infill
G1 X135.049 Y130.882 E1.50618 ; infill
G1 X135.049 Y131.403 E.01995 ; infill
G1 X162.347 Y158.701 E1.47797 ; infill
G1 X161.826 Y158.701 E.01995 ; infill
G1 X135.049 Y131.924 E1.44976 ; infill
