; generated by PrusaSlicer 2.7.4 on 2024-05-01 at 19:17:03 UTC

; 

; external perimeters extrusion width = 0.45mm
; perimeters extrusion width = 0.45mm
; infill extrusion width = 0.45mm
; solid infill extrusion width = 0.45mm
; top infill extrusion width = 0.40mm
; support material extrusion width = 0.35mm
; first layer extrusion width = 0.42mm

M201 X1000 Y1000 Z1000 E5000 ; sets maximum accelerations, mm/sec^2
M203 X200 Y200 Z12 E120 ; sets maximum feedrates, mm / sec
M204 S1250 T1250 ; sets acceleration (S) and retract acceleration (R), mm/sec^2
M205 X8.00 Y8.00 Z0.40 E1.50 ; sets the jerk limits, mm/sec
M205 S0 T0 ; sets the minimum extruding and travel feed rate, mm/sec

; printing object headset_support-Corps id:0 copy 0
; stop printing object headset_support-Corps id:0 copy 0

;TYPE:Custom
; Initial setups
G90 ; use absolute coordinates
;M83 ; extruder relative mode
;;;;;;;
M82 ; Pour que le resume marche
;;;;;;;
M220 S100 ; reset speed factor to 100%
M221 S100 ; reset extrusion rate to 100%

; Set the heating
M190 S70 ; wait for bed to heat up
M104 S220 ; start nozzle heating but don't wait

; Home
G1 Z3 F3000 ; move z up little to prevent scratching of surface
G28 ; home all axes
;;;;;;;
M420 S1 Z2 ; vu sur le net pour la X2
M92 E450   ; Calibration Extruder
M500       ; Sauvegarde EEPROM
;;;;;;;

G1 X3 Y3 F5000 ; move to corner of the bed to avoid ooze over centre

; Wait for final heating
M109 S220 ; wait for the nozzle to heat up
M190 S70 ; wait for the bed to heat up

M109 S220 ; wait for the nozzle to heat up
M190 S70 ; wait for the bed to heat up

; Return to prime position, Prime line routine
G92 E0 ; Reset Extruder
G1 Z3 F3000 ; move z up little to prevent scratching of surface
G1 X10 Y.5 Z0.25 F5000.0 ; Move to start position
G1 X100 Y.5 Z0.25 F1500.0 E15 ; Draw the first line
G1 X100 Y.2 Z0.25 F5000.0 ; Move to side a little
G1 X10 Y.2 Z0.25 F1500.0 E30 ; Draw the second line
G92 E0 ; Reset Extruder
M221 S95
G21 ; set units to millimeters
G90 ; use absolute coordinates
M82 ; use absolute distances for extrusion
G92 E0 ; reset extrusion distance
; Filament gcode
M107 ; disable fan
;LAYER_CHANGE
;Z:0.25
;HEIGHT:0.25
G1 E-.8 F2100 ; retract
G92 E0 ; reset extrusion distance
G1 Z.85 F7800 ; lift
G1 X132.873 Y132.873 ; move to first layer point
G1 Z.25 ; move to first layer point
G1 E.8 F2100 ;  ; unretract
G92 E0 ; reset extrusion distance
M204 S500 ; adjust acceleration
;TYPE:Skirt/Brim
;WIDTH:0.42
G1 F1200
G1 X133.69 Y132.056 E.044 ; skirt
G1 X135.254 Y131.051 E.11479 ; skirt
G1 X136.778 Y130.777 E.17375 ; skirt
G1 X215.53 Y130.777 E3.17244 ; skirt
G1 X217.345 Y131.172 E3.24317 ; skirt
G1 X218.617 Y132.056 E3.30215 ; skirt
G1 X220.251 Y133.69 E3.39014 ; skirt
G1 X221.256 Y135.254 E3.46093 ; skirt
G1 X221.53 Y136.778 E3.51989 ; skirt
G1 X221.53 Y210.915 E6.34285 ; skirt
G1 X221.135 Y212.731 E6.41362 ; skirt
G1 X220.251 Y214.003 E6.4726 ; skirt
G1 X216.31 Y217.944 E6.68482 ; skirt
G1 X214.746 Y218.949 E6.75561 ; skirt
G1 X213.222 Y219.223 E6.81457 ; skirt
G1 X136.778 Y219.223 E9.72537 ; skirt
G1 X134.962 Y218.828 E9.79614 ; skirt
G1 X133.69 Y217.944 E9.85512 ; skirt
G1 X129.749 Y214.003 E10.06734 ; skirt
G1 X128.744 Y212.439 E10.13813 ; skirt
G1 X128.47 Y210.915 E10.19709 ; skirt
G1 X128.47 Y139.085 E12.9322 ; skirt
G1 X128.865 Y137.269 E13.00297 ; skirt
G1 X129.749 Y135.997 E13.06195 ; skirt
G1 X132.83 Y132.915 E13.22789 ; skirt
M204 S1000 ; adjust acceleration
;WIPE_START
G1 F6240
G1 X132.873 Y132.873 E13.20867 ; wipe and retract
G1 X133.69 Y132.056 E12.83927 ; wipe and retract
G1 X134.772 Y131.361 E12.42789 ; wipe and retract
;WIPE_END
G92 E0 ; reset extrusion distance
G1 Z.85 F7800 ; move to first support material point
; printing object headset_support-Corps id:0 copy 0
G92 E0 ; reset extrusion distance
G1 X217.164 Y136.778 ; move to first support material point
G1 Z.25 ; move to first support material point
G1 E.8 F2100 ;  ; unretract
M204 S500 ; adjust acceleration
;TYPE:Support material
G1 F1200
G1 X217.164 Y148.624 E1.25107 ; support material
G1 X215.53 Y150.259 E1.33909 ; support material
G1 X147.952 Y150.259 E3.9123 ; support material
G1 X147.952 Y162.828 E4.3909 ; support material
G1 X210.915 Y162.828 E6.78838 ; support material
G1 X212.55 Y164.462 E6.8764 ; support material
G1 X212.55 Y165.135 E6.90203 ; support material
G1 X215.53 Y165.135 E7.0155 ; support material
G1 X217.164 Y166.77 E7.10352 ; support material
G1 X217.164 Y210.915 E8.78446 ; support material
G1 X215.53 Y212.55 E8.87248 ; support material
G1 X214.857 Y212.55 E8.89811 ; support material
G1 X214.857 Y213.222 E8.9237 ; support material
G1 X213.222 Y214.857 E9.01174 ; support material
G1 X136.778 Y214.857 E11.92254 ; support material
G1 X135.143 Y213.222 E12.01058 ; support material
G1 X135.143 Y212.55 E12.03617 ; support material
G1 X134.47 Y212.55 E12.0618 ; support material
G1 X132.836 Y210.915 E12.14982 ; support material
G1 X132.836 Y189.84 E12.95231 ; support material
G1 X134.47 Y188.206 E13.0403 ; support material
G1 X144.01 Y188.206 E13.40356 ; support material
G1 X145.644 Y189.84 E13.49155 ; support material
G1 X145.644 Y190.513 E13.51718 ; support material
G1 X146.317 Y190.513 E13.54281 ; support material
G1 X147.952 Y192.147 E13.63083 ; support material
G1 X147.952 Y199.741 E13.91999 ; support material
G1 X202.049 Y199.741 E15.97987 ; support material
G1 X202.049 Y177.944 E16.80985 ; support material
G1 X134.47 Y177.944 E19.3831 ; support material
G1 X132.836 Y176.309 E19.47112 ; support material
G1 X132.836 Y139.085 E20.88852 ; support material
G1 X134.47 Y137.45 E20.97654 ; support material
G1 X135.143 Y137.45 E21.00217 ; support material
G1 X135.143 Y136.778 E21.02776 ; support material
G1 X136.778 Y135.143 E21.1158 ; support material
G1 X215.53 Y135.143 E24.11449 ; support material
G1 X217.125 Y136.739 E24.20041 ; support material
M204 S1000 ; adjust acceleration
;WIPE_START
G1 F6240
G1 X215.53 Y135.143 E23.47902 ; wipe and retract
G1 X215.284 Y135.143 E23.40041 ; wipe and retract
;WIPE_END
G92 E0 ; reset extrusion distance
G1 Z.85 F7800 ; move to first support material point
G1 X136.871 Y135.516 ; move to first support material point
G1 Z.25 ; move to first support material point
G1 E.8 F2100 ;  ; unretract
M204 S500 ; adjust acceleration
G1 F1200
G1 X215.436 Y135.516 E3.79157 ; support material
G1 X215.843 Y135.923 E3.81349 ; support material
G1 X136.464 Y135.923 E6.83605 ; support material
G1 X136.057 Y136.33 E6.85797 ; support material
G1 X216.25 Y136.33 E9.91153 ; support material
G1 X216.657 Y136.737 E9.93345 ; support material
G1 X135.65 Y136.737 E13.018 ; support material
G1 X135.473 Y136.914 E13.02753 ; support material
G1 X135.473 Y137.144 E13.03629 ; support material
G1 X216.834 Y137.144 E16.13432 ; support material
G1 X216.834 Y137.551 E16.14982 ; support material
G1 X135.473 Y137.551 E19.24785 ; support material
M204 S1000 ; adjust acceleration
;WIPE_START
G1 F6240
G1 X137.975 Y137.551 E18.44785 ; wipe and retract
;WIPE_END
G92 E0 ; reset extrusion distance
G1 Z.85 F7800 ; move to first support material point
G1 X134.429 Y137.958 ; move to first support material point
G1 Z.25 ; move to first support material point
G1 E.8 F2100 ;  ; unretract
M204 S500 ; adjust acceleration
G1 F1200
G1 X216.834 Y137.958 E3.93779 ; support material
G1 X216.834 Y138.365 E3.95329 ; support material
G1 X134.022 Y138.365 E7.10657 ; support material
G1 X133.615 Y138.772 E7.12849 ; support material
G1 X216.834 Y138.772 E10.29727 ; support material
G1 X216.834 Y139.179 E10.31277 ; support material
G1 X133.166 Y139.221 E13.49865 ; support material
G1 X133.166 Y139.586 E13.51255 ; support material
G1 X216.834 Y139.586 E16.69843 ; support material
G1 X216.834 Y139.993 E16.71393 ; support material
G1 X133.166 Y139.993 E19.89981 ; support material
G1 X133.166 Y140.4 E19.91531 ; support material
G1 X216.834 Y140.4 E23.10119 ; support material
G1 X216.834 Y140.807 E23.11669 ; support material
G1 X133.166 Y140.807 E26.30257 ; support material
G1 X133.166 Y141.214 E26.31807 ; support material
G1 X216.834 Y141.214 E29.50395 ; support material
G1 X216.834 Y141.621 E29.51945 ; support material
G1 X133.166 Y141.621 E32.70533 ; support material
G1 X133.166 Y142.029 E32.72087 ; support material
G1 X216.834 Y142.029 E35.90675 ; support material
G1 X216.834 Y142.436 E35.92225 ; support material
G1 X133.166 Y142.436 E39.10813 ; support material
G1 X133.166 Y142.843 E39.12363 ; support material
G1 X216.834 Y142.843 E42.30951 ; support material
G1 X216.834 Y143.25 E42.32501 ; support material
G1 X133.166 Y143.25 E45.51089 ; support material
G1 X133.166 Y143.657 E45.52639 ; support material
G1 X216.834 Y143.657 E48.71227 ; support material
G1 X216.834 Y144.064 E48.72777 ; support material
G1 X133.166 Y144.064 E51.91365 ; support material
G1 X133.166 Y144.471 E51.92915 ; support material
G1 X216.834 Y144.471 E55.11503 ; support material
G1 X216.834 Y144.878 E55.13053 ; support material
G1 X133.166 Y144.878 E58.31641 ; support material
G1 X133.166 Y145.285 E58.33191 ; support material
G1 X216.834 Y145.285 E61.51779 ; support material
G1 X216.834 Y145.692 E61.53329 ; support material
G1 X133.166 Y145.692 E64.71917 ; support material
G1 X133.166 Y146.099 E64.73467 ; support material
G1 X216.834 Y146.099 E67.92055 ; support material
G1 X216.834 Y146.506 E67.93605 ; support material
G1 X133.166 Y146.506 E71.12193 ; support material
G1 X133.166 Y146.913 E71.13743 ; support material
G1 X216.834 Y146.913 E74.32331 ; support material
G1 X216.834 Y147.32 E74.33881 ; support material
G1 X133.166 Y147.32 E77.52469 ; support material
G1 X133.166 Y147.727 E77.54019 ; support material
G1 X216.834 Y147.727 E80.72607 ; support material
G1 X216.834 Y148.134 E80.74157 ; support material
G1 X133.166 Y148.134 E83.92745 ; support material
G1 X133.166 Y148.541 E83.94295 ; support material
G1 X216.78 Y148.541 E87.12677 ; support material
G1 X216.373 Y148.948 E87.14869 ; support material
G1 X133.166 Y148.948 E90.31701 ; support material
G1 X133.166 Y149.356 E90.33255 ; support material
G1 X215.966 Y149.356 E93.48538 ; support material
G1 X215.559 Y149.763 E93.5073 ; support material
G1 X133.166 Y149.763 E96.64463 ; support material
G1 X133.166 Y150.17 E96.66013 ; support material
G1 X147.622 Y150.17 E97.21058 ; support material
G1 X147.622 Y150.577 E97.22608 ; support material
G1 X133.166 Y150.577 E97.77653 ; support material
G1 X133.166 Y150.984 E97.79203 ; support material
G1 X147.622 Y150.984 E98.34248 ; support material
G1 X147.622 Y151.391 E98.35798 ; support material
G1 X133.166 Y151.391 E98.90843 ; support material
G1 X133.166 Y151.798 E98.92393 ; support material
G1 X147.622 Y151.798 E99.47438 ; support material
G1 X147.622 Y152.205 E99.48988 ; support material
G1 X133.166 Y152.205 E100.04033 ; support material
G1 X133.166 Y152.612 E100.05583 ; support material
G1 X147.622 Y152.612 E100.60628 ; support material
G1 X147.622 Y153.019 E100.62178 ; support material
G1 X133.166 Y153.019 E101.17223 ; support material
G1 X133.166 Y153.426 E101.18773 ; support material
G1 X147.622 Y153.426 E101.73818 ; support material
G1 X147.622 Y153.833 E101.75368 ; support material
G1 X133.166 Y153.833 E102.30413 ; support material
G1 X133.166 Y154.24 E102.31963 ; support material
G1 X147.622 Y154.24 E102.87008 ; support material
G1 X147.622 Y154.647 E102.88558 ; support material
G1 X133.166 Y154.647 E103.43603 ; support material
G1 X133.166 Y155.054 E103.45153 ; support material
G1 X147.622 Y155.054 E104.00198 ; support material
G1 X147.622 Y155.461 E104.01748 ; support material
G1 X133.166 Y155.461 E104.56793 ; support material
G1 X133.166 Y155.868 E104.58343 ; support material
G1 X147.622 Y155.868 E105.13388 ; support material
G1 X147.622 Y156.275 E105.14938 ; support material
G1 X133.166 Y156.275 E105.69983 ; support material
G1 X133.166 Y156.683 E105.71537 ; support material
G1 X147.622 Y156.683 E106.26582 ; support material
G1 X147.622 Y157.09 E106.28132 ; support material
G1 X133.166 Y157.09 E106.83177 ; support material
G1 X133.166 Y157.497 E106.84727 ; support material
G1 X147.622 Y157.497 E107.39772 ; support material
G1 X147.622 Y157.904 E107.41322 ; support material
G1 X133.166 Y157.904 E107.96367 ; support material
G1 X133.166 Y158.311 E107.97917 ; support material
G1 X147.622 Y158.311 E108.52962 ; support material
G1 X147.622 Y158.718 E108.54512 ; support material
G1 X133.166 Y158.718 E109.09557 ; support material
G1 X133.166 Y159.125 E109.11107 ; support material
G1 X147.622 Y159.125 E109.66152 ; support material
G1 X147.622 Y159.532 E109.67702 ; support material
G1 X133.166 Y159.532 E110.22747 ; support material
G1 X133.166 Y159.939 E110.24297 ; support material
G1 X147.622 Y159.939 E110.79342 ; support material
G1 X147.622 Y160.346 E110.80892 ; support material
G1 X133.166 Y160.346 E111.35937 ; support material
G1 X133.166 Y160.753 E111.37487 ; support material
G1 X147.622 Y160.753 E111.92532 ; support material
G1 X147.622 Y161.16 E111.94082 ; support material
G1 X133.166 Y161.16 E112.49127 ; support material
G1 X133.166 Y161.567 E112.50677 ; support material
G1 X147.622 Y161.567 E113.05722 ; support material
G1 X147.622 Y161.974 E113.07272 ; support material
G1 X133.166 Y161.974 E113.62317 ; support material
G1 X133.166 Y162.381 E113.63867 ; support material
G1 X147.622 Y162.381 E114.18912 ; support material
G1 X147.622 Y162.788 E114.20462 ; support material
G1 X133.166 Y162.788 E114.75507 ; support material
G1 X133.166 Y163.195 E114.77057 ; support material
G1 X210.816 Y163.195 E117.7273 ; support material
G1 X211.223 Y163.602 E117.74922 ; support material
G1 X133.166 Y163.602 E120.72144 ; support material
G1 X133.166 Y164.01 E120.73698 ; support material
G1 X211.63 Y164.01 E123.7247 ; support material
G1 X212.038 Y164.417 E123.74664 ; support material
G1 X133.166 Y164.417 E126.7499 ; support material
G1 X133.166 Y164.824 E126.7654 ; support material
G1 X212.22 Y164.824 E129.77559 ; support material
G1 X212.22 Y165.231 E129.79109 ; support material
G1 X133.166 Y165.231 E132.80128 ; support material
G1 X133.166 Y165.638 E132.81678 ; support material
G1 X215.566 Y165.638 E135.95437 ; support material
G1 X215.973 Y166.045 E135.97629 ; support material
G1 X133.166 Y166.045 E139.12938 ; support material
G1 X133.166 Y166.452 E139.14488 ; support material
G1 X216.38 Y166.452 E142.31347 ; support material
G1 X216.787 Y166.859 E142.33539 ; support material
G1 X133.166 Y166.859 E145.51948 ; support material
G1 X133.166 Y167.266 E145.53498 ; support material
G1 X216.834 Y167.266 E148.72086 ; support material
G1 X216.834 Y167.673 E148.73636 ; support material
G1 X133.166 Y167.673 E151.92224 ; support material
G1 X133.166 Y168.08 E151.93774 ; support material
G1 X216.834 Y168.08 E155.12362 ; support material
G1 X216.834 Y168.487 E155.13912 ; support material
G1 X133.166 Y168.487 E158.325 ; support material
G1 X133.166 Y168.894 E158.3405 ; support material
G1 X216.834 Y168.894 E161.52638 ; support material
G1 X216.834 Y169.301 E161.54188 ; support material
G1 X133.166 Y169.301 E164.72776 ; support material
G1 X133.166 Y169.708 E164.74326 ; support material
G1 X216.834 Y169.708 E167.92914 ; support material
G1 X216.834 Y170.115 E167.94464 ; support material
G1 X133.166 Y170.115 E171.13052 ; support material
G1 X133.166 Y170.522 E171.14602 ; support material
G1 X216.834 Y170.522 E174.3319 ; support material
G1 X216.834 Y170.929 E174.3474 ; support material
G1 X133.166 Y170.929 E177.53328 ; support material
G1 X133.166 Y171.337 E177.54882 ; support material
G1 X216.834 Y171.337 E180.7347 ; support material
G1 X216.834 Y171.744 E180.7502 ; support material
G1 X133.166 Y171.744 E183.93608 ; support material
G1 X133.166 Y172.151 E183.95158 ; support material
G1 X216.834 Y172.151 E187.13746 ; support material
G1 X216.834 Y172.558 E187.15296 ; support material
G1 X133.166 Y172.558 E190.33884 ; support material
G1 X133.166 Y172.965 E190.35434 ; support material
G1 X216.834 Y172.965 E193.54022 ; support material
