; generated by PrusaSlicer 2.7.4 on 2024-05-07 at 05:41:55 UTC

; 

; external perimeters extrusion width = 0.45mm
; perimeters extrusion width = 0.45mm
; infill extrusion width = 0.45mm
; solid infill extrusion width = 0.45mm
; top infill extrusion width = 0.40mm
; first layer extrusion width = 0.42mm

M201 X1000 Y1000 Z1000 E5000 ; sets maximum accelerations, mm/sec^2
M203 X200 Y200 Z12 E120 ; sets maximum feedrates, mm / sec
M204 S1250 T1250 ; sets acceleration (S) and retract acceleration (R), mm/sec^2
M205 X8.00 Y8.00 Z0.40 E1.50 ; sets the jerk limits, mm/sec
M205 S0 T0 ; sets the minimum extruding and travel feed rate, mm/sec

; printing object plate-Body id:0 copy 0
; stop printing object plate-Body id:0 copy 0

;TYPE:Custom
; Initial setups
G90 ; use absolute coordinates
;M83 ; extruder relative mode
M82
M220 S100 ; reset speed factor to 100%
M221 S100 ; reset extrusion rate to 100%

; Set the heating
M190 S65 ; wait for bed to heat up
M104 S210 ; start nozzle heating but don't wait

; Home
G1 Z3 F3000 ; move z up little to prevent scratching of surface
G28 ; home all axes
M420 S1 ; Z10 ; AUTO LEVEL
M500 ; sauvegarde eeprom
M92 E433 ; calibration de l'extrudeur
;M92 E450 ; calibration de l'extrudeur
M500 ; sauvegarde eeprom
G92 E0 ; reset extruder

M201 X800 Y800
M205 X10.0 Z0.30

G1 X3 Y3 F5000 ; move to corner of the bed to avoid ooze over centre

; Wait for final heating
M109 S210 ; wait for the nozzle to heat up
M190 S65 ; wait for the bed to heat up

; Return to prime position, Prime line routine
G92 E0 ; Reset Extruder
G1 Z3 F3000 ; move z up little to prevent scratching of surface
G1 X10 Y.5 Z0.25 F5000.0 ; Move to start position
G1 X100 Y.5 Z0.25 F1500.0 E15 ; Draw the first line
G1 X100 Y.2 Z0.25 F5000.0 ; Move to side a little
G1 X10 Y.2 Z0.25 F1500.0 E30 ; Draw the second line
G92 E0 ; Reset Extruder
M221 S95
G21 ; set units to millimeters
G90 ; use absolute coordinates
M82 ; use absolute distances for extrusion
G92 E0 ; reset extrusion distance
; Filament gcode
M107 ; disable fan
;LAYER_CHANGE
;Z:0.25
;HEIGHT:0.25
G1 E-2 F2100 ; retract
G92 E0 ; reset extrusion distance
G1 Z.85 F7800 ; lift
G1 X80.985 Y120.506 ; move to first layer point
G1 Z.25 ; move to first layer point
G1 E2 F2100 ;  ; unretract
G92 E0 ; reset extrusion distance
M204 S500 ; adjust acceleration
;TYPE:Skirt/Brim
;WIDTH:0.42
G1 F1200
G1 X81.966 Y120.016 E.04175 ; skirt
G1 X119.959 Y105.2 E1.59454 ; skirt
G1 X140.162 Y98.354 E2.40679 ; skirt
G1 X140.909 Y98.154 E2.43624 ; skirt
G1 X141.734 Y98.041 E2.46795 ; skirt
G1 X156.44 Y97.033 E3.02923 ; skirt
G1 X157.514 Y97.136 E3.07031 ; skirt
G1 X178.459 Y101.056 E3.88169 ; skirt
G1 X179.347 Y101.297 E3.91673 ; skirt
G1 X201.012 Y111.007 E4.82075 ; skirt
G1 X201.805 Y111.491 E4.85613 ; skirt
G1 X202.523 Y112.089 E4.89171 ; skirt
G1 X203.142 Y112.783 E4.92712 ; skirt
G1 X203.654 Y113.562 E4.96262 ; skirt
G1 X204.195 Y114.852 E5.01588 ; skirt
G1 X221.779 Y175.393 E7.4164 ; skirt
G1 X221.993 Y176.416 E7.4562 ; skirt
G1 X221.994 Y177.967 E7.51526 ; skirt
G1 X221.652 Y179.384 E7.57077 ; skirt
G1 X213.728 Y199.007 E8.37659 ; skirt
G1 X213.208 Y200.02 E8.41995 ; skirt
G1 X212.224 Y201.219 E8.47901 ; skirt
G1 X210.984 Y202.141 E8.53785 ; skirt
G1 X209.551 Y202.736 E8.59693 ; skirt
G1 X208.733 Y202.906 E8.62874 ; skirt
G1 X207.817 Y202.967 E8.6637 ; skirt
G1 X93.955 Y201.508 E12.99965 ; skirt
G1 X93.153 Y201.448 E13.03027 ; skirt
G1 X92.245 Y201.253 E13.06563 ; skirt
G1 X91.402 Y200.939 E13.09988 ; skirt
G1 X90.639 Y200.526 E13.13292 ; skirt
G1 X89.588 Y199.693 E13.18399 ; skirt
G1 X88.676 Y198.564 E13.23925 ; skirt
G1 X88.084 Y197.364 E13.2902 ; skirt
G1 X87.755 Y196.057 E13.34152 ; skirt
G1 X78.007 Y126.683 E16.00907 ; skirt
G1 X77.964 Y125.655 E16.04825 ; skirt
G1 X78.112 Y124.521 E16.0918 ; skirt
G1 X78.419 Y123.538 E16.13101 ; skirt
G1 X78.942 Y122.518 E16.17466 ; skirt
G1 X79.56 Y121.697 E16.21379 ; skirt
G1 X80.229 Y121.049 E16.24925 ; skirt
G1 X80.936 Y120.541 E16.2824 ; skirt
;WIPE_START
G1 F6240
G1 X80.985 Y120.506 E16.26315 ; wipe and retract
G1 X81.966 Y120.016 E15.91256 ; wipe and retract
G1 X86.716 Y118.163 E14.2824 ; wipe and retract
;WIPE_END
G92 E0 ; reset extrusion distance
G1 Z.85 F7800 ; move to first perimeter point
; printing object plate-Body id:0 copy 0
G92 E0 ; reset extrusion distance
G1 X178.731 Y140.68 ; move to first perimeter point
G1 Z.25 ; move to first perimeter point
G1 E2 F2100 ;  ; unretract
;TYPE:Perimeter
;WIDTH:0.419999
G1 F1200
G1 X178.634 Y140.695 E2.00374 ; perimeter
G1 X164.522 Y141.188 E2.54142 ; perimeter
G1 X164.138 Y141.118 E2.55628 ; perimeter
G1 X163.895 Y140.969 E2.56713 ; perimeter
G1 X163.744 Y140.804 E2.57565 ; perimeter
G1 X163.601 Y140.493 E2.58868 ; perimeter
G1 X163.548 Y139.541 E2.62499 ; perimeter
G1 X163.082 Y126.192 E3.1336 ; perimeter
G1 X163.105 Y125.954 E3.1427 ; perimeter
G1 X163.184 Y125.738 E3.15146 ; perimeter
G1 X163.398 Y125.468 E3.16458 ; perimeter
G1 X163.729 Y125.285 E3.17898 ; perimeter
G1 X163.965 Y125.245 E3.18809 ; perimeter
G1 X178.077 Y124.752 E3.72577 ; perimeter
G1 X178.332 Y124.779 E3.73553 ; perimeter
G1 X178.684 Y124.954 E3.7505 ; perimeter
G1 X178.902 Y125.21 E3.7633 ; perimeter
G1 X178.989 Y125.411 E3.77164 ; perimeter
G1 X179.025 Y125.636 E3.78032 ; perimeter
G1 X179.517 Y139.748 E4.318 ; perimeter
G1 X179.492 Y139.997 E4.32753 ; perimeter
G1 X179.404 Y140.222 E4.33673 ; perimeter
G1 X179.176 Y140.494 E4.35024 ; perimeter
G1 X178.854 Y140.66 E4.36403 ; perimeter
G1 X178.79 Y140.67 E4.3665 ; perimeter
G1 X178.79 Y140.67 F7800 ; move to first perimeter point
G1 X178.67 Y140.321 ; move to first perimeter point
G1 F1200
G1 X178.621 Y140.329 E4.36839 ; perimeter
G1 X164.509 Y140.822 E4.90607 ; perimeter
G1 X164.279 Y140.78 E4.91497 ; perimeter
G1 X164.042 Y140.591 E4.92651 ; perimeter
G1 X163.942 Y140.317 E4.93762 ; perimeter
G1 X163.448 Y126.18 E5.47625 ; perimeter
G1 X163.509 Y125.907 E5.4869 ; perimeter
G1 X163.637 Y125.745 E5.49476 ; perimeter
G1 X163.836 Y125.635 E5.50342 ; perimeter
G1 X163.978 Y125.611 E5.5089 ; perimeter
G1 X178.09 Y125.118 E6.04658 ; perimeter
G1 X178.367 Y125.182 E6.05741 ; perimeter
G1 X178.512 Y125.293 E6.06436 ; perimeter
G1 X178.637 Y125.514 E6.07403 ; perimeter
G1 X178.658 Y125.648 E6.07919 ; perimeter
G1 X179.151 Y139.761 E6.61691 ; perimeter
G1 X179.083 Y140.045 E6.62803 ; perimeter
G1 X178.946 Y140.208 E6.63614 ; perimeter
G1 X178.753 Y140.308 E6.64442 ; perimeter
G1 X178.729 Y140.312 E6.64535 ; perimeter
G1 X178.729 Y140.312 F7800 ; move to first perimeter point
G1 X178.608 Y139.963 ; move to first perimeter point
;TYPE:External perimeter
G1 F1200
G1 X164.496 Y140.456 E7.18303 ; perimeter
G1 X164.42 Y140.442 E7.18597 ; perimeter
G1 X164.312 Y140.317 E7.19226 ; perimeter
G1 X164.28 Y139.515 E7.22282 ; perimeter
G1 X163.814 Y126.167 E7.73139 ; perimeter
G1 X163.877 Y126.022 E7.73741 ; perimeter
G1 X163.991 Y125.977 E7.74208 ; perimeter
G1 X178.103 Y125.484 E8.27976 ; perimeter
G1 X178.243 Y125.543 E8.28554 ; perimeter
G1 X178.292 Y125.661 E8.29041 ; perimeter
G1 X178.785 Y139.773 E8.82809 ; perimeter
G1 X178.717 Y139.923 E8.83436 ; perimeter
G1 X178.665 Y139.942 E8.83647 ; perimeter
;WIPE_START
G1 F6240
G1 X178.608 Y139.963 E8.81705 ; wipe and retract
G1 X172.417 Y140.179 E6.83647 ; wipe and retract
;WIPE_END
G92 E0 ; reset extrusion distance
G1 Z.85 F7800 ; move to first perimeter point
G1 X179.372 Y143.969 ; move to first perimeter point
G1 Z.25 ; move to first perimeter point
G1 E2 F2100 ;  ; unretract
;TYPE:Perimeter
G1 F1200
G1 X179.396 Y143.985 E2.0011 ; perimeter
G1 X179.54 Y144.157 E2.00964 ; perimeter
G1 X179.644 Y144.375 E2.01884 ; perimeter
G1 X179.688 Y144.624 E2.02847 ; perimeter
G1 X180.18 Y158.736 E2.56615 ; perimeter
G1 X180.154 Y158.99 E2.57587 ; perimeter
G1 X180.062 Y159.219 E2.58527 ; perimeter
G1 X179.924 Y159.404 E2.59406 ; perimeter
G1 X179.596 Y159.622 E2.60906 ; perimeter
G1 X179.297 Y159.683 E2.62068 ; perimeter
G1 X165.185 Y160.176 E3.15836 ; perimeter
G1 X164.883 Y160.136 E3.16996 ; perimeter
G1 X164.552 Y159.952 E3.18438 ; perimeter
G1 X164.489 Y159.892 E3.18769 ; perimeter
G1 X164.302 Y159.598 E3.20096 ; perimeter
G1 X164.238 Y159.293 E3.21283 ; perimeter
G1 X163.745 Y145.181 E3.75051 ; perimeter
G1 X163.775 Y144.915 E3.7607 ; perimeter
G1 X163.873 Y144.68 E3.7704 ; perimeter
G1 X164.116 Y144.412 E3.78418 ; perimeter
G1 X164.425 Y144.264 E3.79723 ; perimeter
G1 X164.628 Y144.234 E3.80504 ; perimeter
G1 X178.74 Y143.741 E4.34272 ; perimeter
G1 X179.152 Y143.822 E4.35871 ; perimeter
G1 X179.322 Y143.936 E4.3665 ; perimeter
G1 X179.159 Y144.274 F7800 ; move to first perimeter point
G1 F1200
G1 X179.295 Y144.488 E4.37615 ; perimeter
G1 X179.321 Y144.637 E4.38191 ; perimeter
G1 X179.814 Y158.749 E4.91959 ; perimeter
G1 X179.743 Y159.039 E4.93096 ; perimeter
G1 X179.563 Y159.23 E4.94095 ; perimeter
G1 X179.284 Y159.317 E4.95208 ; perimeter
G1 X165.172 Y159.81 E5.48976 ; perimeter
G1 X164.935 Y159.765 E5.49895 ; perimeter
G1 X164.755 Y159.639 E5.50732 ; perimeter
G1 X164.62 Y159.396 E5.5179 ; perimeter
G1 X164.576 Y158.489 E5.55248 ; perimeter
G1 X164.111 Y145.168 E6.06002 ; perimeter
G1 X164.188 Y144.868 E6.07181 ; perimeter
G1 X164.333 Y144.707 E6.08006 ; perimeter
G1 X164.641 Y144.6 E6.09248 ; perimeter
G1 X178.753 Y144.107 E6.63016 ; perimeter
G1 X179 Y144.156 E6.63975 ; perimeter
G1 X179.117 Y144.234 E6.6451 ; perimeter
G1 X179.117 Y144.234 F7800 ; move to first perimeter point
G1 X178.955 Y144.65 ; move to first perimeter point
;TYPE:External perimeter
G1 F1200
G1 X179.448 Y158.762 E7.18278 ; perimeter
G1 X179.397 Y158.895 E7.1882 ; perimeter
G1 X179.272 Y158.951 E7.19342 ; perimeter
G1 X165.159 Y159.444 E7.73114 ; perimeter
G1 X165.02 Y159.387 E7.73686 ; perimeter
G1 X164.97 Y159.267 E7.74181 ; perimeter
G1 X164.477 Y145.155 E8.27949 ; perimeter
G1 X164.532 Y145.018 E8.28511 ; perimeter
G1 X164.654 Y144.966 E8.29016 ; perimeter
G1 X178.766 Y144.473 E8.82784 ; perimeter
G1 X178.897 Y144.522 E8.83317 ; perimeter
G1 X178.93 Y144.595 E8.83622 ; perimeter
;WIPE_START
G1 F6240
G1 X178.955 Y144.65 E8.8169 ; wipe and retract
G1 X179.171 Y150.841 E6.83622 ; wipe and retract
;WIPE_END
G92 E0 ; reset extrusion distance
G1 Z.85 F7800 ; move to first perimeter point
G1 X159.765 Y140.508 ; move to first perimeter point
G1 Z.25 ; move to first perimeter point
G1 E2 F2100 ;  ; unretract
;TYPE:Perimeter
G1 F1200
G1 X159.793 Y140.632 E2.00484 ; perimeter
G1 X160.778 Y154.718 E2.54251 ; perimeter
G1 X160.755 Y154.998 E2.55321 ; perimeter
G1 X160.654 Y155.247 E2.56344 ; perimeter
G1 X160.501 Y155.442 E2.57288 ; perimeter
G1 X160.147 Y155.654 E2.58859 ; perimeter
G1 X159.107 Y155.753 E2.62837 ; perimeter
G1 X149.689 Y156.412 E2.98786 ; perimeter
G1 X145.842 Y156.681 E3.1347 ; perimeter
G1 X145.46 Y156.626 E3.1494 ; perimeter
G1 X145.26 Y156.522 E3.15798 ; perimeter
G1 X145.072 Y156.351 E3.16766 ; perimeter
G1 X144.898 Y156.019 E3.18193 ; perimeter
G1 X144.865 Y155.831 E3.1892 ; perimeter
G1 X143.88 Y141.745 E3.72687 ; perimeter
G1 X143.907 Y141.451 E3.73811 ; perimeter
G1 X143.997 Y141.228 E3.74727 ; perimeter
G1 X144.223 Y140.964 E3.7605 ; perimeter
G1 X144.527 Y140.805 E3.77356 ; perimeter
G1 X144.73 Y140.767 E3.78142 ; perimeter
G1 X158.816 Y139.782 E4.31909 ; perimeter
G1 X159.216 Y139.844 E4.3345 ; perimeter
G1 X159.465 Y139.991 E4.34551 ; perimeter
G1 X159.614 Y140.149 E4.35378 ; perimeter
G1 X159.729 Y140.353 E4.3627 ; perimeter
G1 X159.751 Y140.449 E4.36645 ; perimeter
G1 X159.751 Y140.449 F7800 ; move to first perimeter point
G1 X159.218 Y140.289 ; move to first perimeter point
G1 F1200
G1 X159.32 Y140.368 E4.37136 ; perimeter
G1 X159.428 Y140.658 E4.38314 ; perimeter
G1 X160.413 Y154.744 E4.92081 ; perimeter
G1 X160.399 Y154.911 E4.92719 ; perimeter
G1 X160.246 Y155.178 E4.93891 ; perimeter
G1 X160.034 Y155.305 E4.94832 ; perimeter
G1 X159.082 Y155.388 E4.98471 ; perimeter
G1 X149.664 Y156.047 E5.3442 ; perimeter
G1 X145.817 Y156.316 E5.49104 ; perimeter
G1 X145.587 Y156.283 E5.49989 ; perimeter
G1 X145.355 Y156.117 E5.51075 ; perimeter
G1 X145.25 Y155.918 E5.51932 ; perimeter
G1 X144.245 Y141.719 E6.06134 ; perimeter
G1 X144.261 Y141.543 E6.06807 ; perimeter
G1 X144.395 Y141.303 E6.07854 ; perimeter
G1 X144.634 Y141.155 E6.08924 ; perimeter
G1 X144.755 Y141.133 E6.09392 ; perimeter
G1 X158.841 Y140.148 E6.63159 ; perimeter
G1 X159.082 Y140.185 E6.64087 ; perimeter
G1 X159.17 Y140.252 E6.64508 ; perimeter
G1 X159.17 Y140.252 F7800 ; move to first perimeter point
G1 X158.867 Y140.513 ; move to first perimeter point
;TYPE:External perimeter
G1 F1200
G1 X158.997 Y140.555 E6.65028 ; perimeter
G1 X159.063 Y140.683 E6.65576 ; perimeter
G1 X160.048 Y154.77 E7.19347 ; perimeter
G1 X159.992 Y154.914 E7.19935 ; perimeter
G1 X159.878 Y154.965 E7.20411 ; perimeter
G1 X149.638 Y155.681 E7.59498 ; perimeter
G1 X145.791 Y155.95 E7.74182 ; perimeter
G1 X145.675 Y155.918 E7.7464 ; perimeter
G1 X145.596 Y155.78 E7.75245 ; perimeter
G1 X144.611 Y141.694 E8.29012 ; perimeter
G1 X144.661 Y141.555 E8.29574 ; perimeter
G1 X144.781 Y141.498 E8.3008 ; perimeter
G1 X158.807 Y140.517 E8.83618 ; perimeter
;WIPE_START
G1 F6240
G1 X158.867 Y140.513 E8.81695 ; wipe and retract
G1 X158.997 Y140.555 E8.77327 ; wipe and retract
G1 X159.063 Y140.683 E8.72723 ; wipe and retract
G1 X159.475 Y146.583 E6.83618 ; wipe and retract
;WIPE_END
G92 E0 ; reset extrusion distance
G1 Z.85 F7800 ; move to first perimeter point
G1 X140.732 Y146.66 ; move to first perimeter point
G1 Z.25 ; move to first perimeter point
G1 E2 F2100 ;  ; unretract
;TYPE:Perimeter
G1 F1200
G1 X140.765 Y146.785 E2.00492 ; perimeter
G1 X142.241 Y160.828 E2.54259 ; perimeter
G1 X142.203 Y161.201 E2.55687 ; perimeter
G1 X142.037 Y161.506 E2.57009 ; perimeter
G1 X141.787 Y161.718 E2.58257 ; perimeter
G1 X141.426 Y161.835 E2.59702 ; perimeter
G1 X127.382 Y163.311 E3.13473 ; perimeter
G1 X127.02 Y163.276 E3.14858 ; perimeter
G1 X126.811 Y163.183 E3.15729 ; perimeter
G1 X126.611 Y163.018 E3.16716 ; perimeter
G1 X126.415 Y162.682 E3.18197 ; perimeter
G1 X126.376 Y162.496 E3.18921 ; perimeter
G1 X125.809 Y157.098 E3.39588 ; perimeter
G1 X124.9 Y148.452 E3.72691 ; perimeter
G1 X124.911 Y148.185 E3.73709 ; perimeter
G1 X124.993 Y147.944 E3.74678 ; perimeter
G1 X125.216 Y147.66 E3.76053 ; perimeter
G1 X125.514 Y147.49 E3.77359 ; perimeter
G1 X125.715 Y147.446 E3.78142 ; perimeter
G1 X139.758 Y145.97 E4.31909 ; perimeter
G1 X140.132 Y146.008 E4.3334 ; perimeter
G1 X140.382 Y146.132 E4.34403 ; perimeter
G1 X140.558 Y146.295 E4.35316 ; perimeter
G1 X140.695 Y146.518 E4.36313 ; perimeter
G1 X140.717 Y146.602 E4.36644 ; perimeter
G1 X140.717 Y146.602 F7800 ; move to first perimeter point
G1 X140.384 Y146.761 ; move to first perimeter point
G1 F1200
G1 X140.401 Y146.823 E4.36889 ; perimeter
G1 X141.877 Y160.866 E4.90656 ; perimeter
G1 X141.836 Y161.138 E4.91703 ; perimeter
G1 X141.678 Y161.349 E4.92707 ; perimeter
G1 X141.457 Y161.459 E4.93647 ; perimeter
G1 X141.388 Y161.47 E4.93913 ; perimeter
G1 X127.344 Y162.946 E5.47684 ; perimeter
G1 X127.127 Y162.926 E5.48514 ; perimeter
G1 X126.881 Y162.771 E5.49621 ; perimeter
G1 X126.764 Y162.569 E5.5051 ; perimeter
G1 X126.74 Y162.457 E5.50946 ; perimeter
G1 X126.173 Y157.06 E5.7161 ; perimeter
G1 X125.264 Y148.414 E6.04713 ; perimeter
G1 X125.32 Y148.109 E6.05894 ; perimeter
G1 X125.454 Y147.939 E6.06718 ; perimeter
G1 X125.753 Y147.81 E6.07958 ; perimeter
G1 X139.797 Y146.334 E6.61729 ; perimeter
G1 X140.021 Y146.357 E6.62586 ; perimeter
G1 X140.171 Y146.431 E6.63223 ; perimeter
G1 X140.359 Y146.663 E6.6436 ; perimeter
G1 X140.369 Y146.703 E6.64517 ; perimeter
G1 X140.369 Y146.703 F7800 ; move to first perimeter point
G1 X140.036 Y146.861 ; move to first perimeter point
;TYPE:External perimeter
G1 F1200
G1 X141.512 Y160.905 E7.18288 ; perimeter
G1 X141.464 Y161.048 E7.18862 ; perimeter
G1 X141.349 Y161.106 E7.19352 ; perimeter
G1 X127.306 Y162.582 E7.73119 ; perimeter
G1 X127.152 Y162.524 E7.73746 ; perimeter
G1 X127.105 Y162.419 E7.74184 ; perimeter
