; generated by PrusaSlicer 2.7.4 on 2024-05-07 at 05:43:13 UTC

; 

; external perimeters extrusion width = 0.45mm
; perimeters extrusion width = 0.45mm
; infill extrusion width = 0.45mm
; solid infill extrusion width = 0.45mm
; top infill extrusion width = 0.40mm
; first layer extrusion width = 0.42mm

; external perimeters extrusion width = 0.45mm
; perimeters extrusion width = 0.45mm
; infill extrusion width = 0.45mm
; solid infill extrusion width = 0.45mm
; top infill extrusion width = 0.40mm
; first layer extrusion width = 0.42mm

M201 X1000 Y1000 Z1000 E5000 ; sets maximum accelerations, mm/sec^2
M203 X200 Y200 Z12 E120 ; sets maximum feedrates, mm / sec
M204 S1250 T1250 ; sets acceleration (S) and retract acceleration (R), mm/sec^2
M205 X8.00 Y8.00 Z0.40 E1.50 ; sets the jerk limits, mm/sec
M205 S0 T0 ; sets the minimum extruding and travel feed rate, mm/sec

; printing object plate-Body id:0 copy 0
; stop printing object plate-Body id:0 copy 0
; printing object plate-Body id:1 copy 0
; stop printing object plate-Body id:1 copy 0

;TYPE:Custom
; Initial setups
G90 ; use absolute coordinates
;M83 ; extruder relative mode
M82
M220 S100 ; reset speed factor to 100%
M221 S100 ; reset extrusion rate to 100%

; Set the heating
M190 S65 ; wait for bed to heat up
M104 S210 ; start nozzle heating but don't wait

; Home
G1 Z3 F3000 ; move z up little to prevent scratching of surface
G28 ; home all axes
M420 S1 ; Z10 ; AUTO LEVEL
M500 ; sauvegarde eeprom
M92 E433 ; calibration de l'extrudeur
;M92 E450 ; calibration de l'extrudeur
M500 ; sauvegarde eeprom
G92 E0 ; reset extruder

M201 X800 Y800
M205 X10.0 Z0.30

G1 X3 Y3 F5000 ; move to corner of the bed to avoid ooze over centre

; Wait for final heating
M109 S210 ; wait for the nozzle to heat up
M190 S65 ; wait for the bed to heat up

; Return to prime position, Prime line routine
G92 E0 ; Reset Extruder
G1 Z3 F3000 ; move z up little to prevent scratching of surface
G1 X10 Y.5 Z0.25 F5000.0 ; Move to start position
G1 X100 Y.5 Z0.25 F1500.0 E15 ; Draw the first line
G1 X100 Y.2 Z0.25 F5000.0 ; Move to side a little
G1 X10 Y.2 Z0.25 F1500.0 E30 ; Draw the second line
G92 E0 ; Reset Extruder
M221 S95
G21 ; set units to millimeters
G90 ; use absolute coordinates
M82 ; use absolute distances for extrusion
G92 E0 ; reset extrusion distance
; Filament gcode
M107 ; disable fan
;LAYER_CHANGE
;Z:0.25
;HEIGHT:0.25
G1 E-2 F2100 ; retract
G92 E0 ; reset extrusion distance
G1 Z.85 F10200 ; lift
G1 X78.056 Y74.445 ; move to first layer point
G1 Z.25 ; move to first layer point
G1 E2 F2100 ;  ; unretract
G92 E0 ; reset extrusion distance
M204 S500 ; adjust acceleration
;TYPE:Skirt/Brim
;WIDTH:0.42
G1 F1200
G1 X79.254 Y73.335 E.06219 ; skirt
G1 X80.646 Y72.48 E.12439 ; skirt
G1 X119.484 Y57.31 E1.71206 ; skirt
G1 X139.52 Y50.525 E2.51754 ; skirt
G1 X140.524 Y50.257 E2.55711 ; skirt
G1 X141.594 Y50.111 E2.59823 ; skirt
G1 X155.793 Y49.118 E3.14021 ; skirt
G1 X156.749 Y49.107 E3.17661 ; skirt
G1 X157.882 Y49.236 E3.22003 ; skirt
G1 X178.827 Y53.156 E4.03141 ; skirt
G1 X180.283 Y53.577 E4.08912 ; skirt
G1 X202.183 Y63.432 E5.00356 ; skirt
G1 X203.285 Y64.167 E5.054 ; skirt
G1 X204.397 Y65.227 E5.1125 ; skirt
G1 X205.186 Y66.291 E5.16294 ; skirt
G1 X205.91 Y67.75 E5.22496 ; skirt
G1 X223.699 Y128.901 E7.64997 ; skirt
G1 X223.975 Y130.219 E7.70124 ; skirt
G1 X224.042 Y131.247 E7.74047 ; skirt
G1 X224.042 Y223.276 E11.24471 ; skirt
G1 X223.939 Y224.598 E11.2952 ; skirt
G1 X223.629 Y225.882 E11.3455 ; skirt
G1 X215.582 Y245.851 E12.16529 ; skirt
G1 X215.118 Y246.815 E12.20603 ; skirt
G1 X214.683 Y247.506 E12.23712 ; skirt
G1 X213.973 Y248.387 E12.2802 ; skirt
G1 X212.676 Y249.526 E12.34593 ; skirt
G1 X211.985 Y249.967 E12.37714 ; skirt
G1 X210.97 Y250.459 E12.42009 ; skirt
G1 X209.305 Y250.935 E12.48603 ; skirt
G1 X207.792 Y251.062 E12.54384 ; skirt
G1 X93.93 Y249.603 E16.87979 ; skirt
G1 X92.588 Y249.478 E16.93111 ; skirt
G1 X91.397 Y249.178 E16.97788 ; skirt
G1 X90.27 Y248.709 E17.02436 ; skirt
G1 X89.475 Y248.25 E17.05931 ; skirt
G1 X88.501 Y247.508 E17.10593 ; skirt
G1 X87.708 Y246.704 E17.14893 ; skirt
G1 X87.149 Y245.976 E17.18388 ; skirt
G1 X86.576 Y245.003 E17.22688 ; skirt
G1 X86.212 Y244.164 E17.2617 ; skirt
G1 X85.873 Y242.987 E17.30834 ; skirt
G1 X75.981 Y172.602 E20.01477 ; skirt
G1 X75.958 Y79.957 E23.54247 ; skirt
G1 X76.084 Y78.534 E23.59687 ; skirt
G1 X76.385 Y77.342 E23.64368 ; skirt
G1 X77.066 Y75.822 E23.7071 ; skirt
G1 X78.021 Y74.494 E23.76938 ; skirt
M204 S1000 ; adjust acceleration
;WIPE_START
G1 F8160
G1 X78.056 Y74.445 E23.75466 ; wipe and retract
G1 X79.254 Y73.335 E23.35537 ; wipe and retract
G1 X80.646 Y72.48 E22.95598 ; wipe and retract
G1 X85.167 Y70.714 E21.76938 ; wipe and retract
;WIPE_END
G92 E0 ; reset extrusion distance
G1 Z.85 F10200 ; move to first perimeter point
; printing object plate-Body id:0 copy 0
G92 E0 ; reset extrusion distance
G1 X177.949 Y152.606 ; move to first perimeter point
G1 Z.25 ; move to first perimeter point
G1 E2 F2100 ;  ; unretract
M204 S500 ; adjust acceleration
;TYPE:Perimeter
;WIDTH:0.435223
G1 F1200
G1 X177.993 Y152.669 E2.00305 ; perimeter
;WIDTH:0.484675
G1 X178.029 Y152.892 E2.01317 ; perimeter
;WIDTH:0.534127
G1 X178.065 Y153.114 E2.0244 ; perimeter
;WIDTH:0.564018
G1 X178.099 Y153.647 E2.05273 ; perimeter
;WIDTH:0.593908
G1 X178.132 Y154.179 E2.08266 ; perimeter
G1 X178.114 Y154.279 E2.08837 ; perimeter
;WIDTH:0.550431
G1 X178.096 Y154.38 E2.09367 ; perimeter
;WIDTH:0.506954
G1 X178.077 Y154.481 E2.09851 ; perimeter
;WIDTH:0.463477
G1 X178.059 Y154.581 E2.10284 ; perimeter
;WIDTH:0.419999
G1 X178.488 Y166.867 E2.57095 ; perimeter
G1 X178.433 Y167.126 E2.58103 ; perimeter
G1 X178.313 Y167.289 E2.58874 ; perimeter
G1 X178.11 Y167.409 E2.59772 ; perimeter
G1 X177.958 Y167.436 E2.6036 ; perimeter
G1 X163.846 Y167.929 E3.14128 ; perimeter
G1 X163.584 Y167.872 E3.15149 ; perimeter
G1 X163.361 Y167.671 E3.16292 ; perimeter
G1 X163.278 Y167.399 E3.17375 ; perimeter
G1 X163.116 Y162.764 E3.35035 ; perimeter
G1 X162.785 Y153.286 E3.71147 ; perimeter
G1 X162.883 Y152.953 E3.72469 ; perimeter
G1 X163.054 Y152.854 E3.73221 ; perimeter
;WIDTH:0.394772
G1 X163.225 Y152.754 E3.73923 ; perimeter
;WIDTH:0.369544
G1 X163.316 Y152.746 E3.74223 ; perimeter
;WIDTH:0.364418
G1 X177.162 Y152.262 E4.18974 ; perimeter
G1 X177.532 Y152.27 E4.20169 ; perimeter
;WIDTH:0.356836
G1 X177.807 Y152.403 E4.21132 ; perimeter
;WIDTH:0.39603
G1 X177.9 Y152.536 E4.2171 ; perimeter
;WIDTH:0.435223
G1 X177.915 Y152.557 E4.21812 ; perimeter
M204 S1000 ; adjust acceleration
;WIPE_START
G1 F8160
G1 X177.949 Y152.606 E4.20354 ; wipe and retract
G1 X177.993 Y152.669 E4.18475 ; wipe and retract
G1 X178.029 Y152.892 E4.12952 ; wipe and retract
G1 X178.065 Y153.114 E4.07454 ; wipe and retract
G1 X178.099 Y153.647 E3.94396 ; wipe and retract
G1 X178.132 Y154.179 E3.81364 ; wipe and retract
G1 X178.114 Y154.279 E3.7888 ; wipe and retract
G1 X178.096 Y154.38 E3.76372 ; wipe and retract
G1 X178.077 Y154.481 E3.73859 ; wipe and retract
G1 X178.059 Y154.581 E3.71375 ; wipe and retract
G1 X178.273 Y160.695 E2.21812 ; wipe and retract
;WIPE_END
G92 E0 ; reset extrusion distance
G1 Z.85 F10200 ; move to first perimeter point
G1 X178.176 Y171.233 ; move to first perimeter point
G1 Z.25 ; move to first perimeter point
G1 E2 F2100 ;  ; unretract
M204 S500 ; adjust acceleration
;WIDTH:0.419999
G1 F1200
G1 X178.367 Y171.277 E2.00746 ; perimeter
G1 X178.512 Y171.388 E2.01441 ; perimeter
G1 X178.637 Y171.609 E2.02408 ; perimeter
G1 X178.658 Y171.744 E2.02928 ; perimeter
G1 X179.151 Y185.856 E2.56696 ; perimeter
G1 X179.083 Y186.14 E2.57808 ; perimeter
G1 X178.946 Y186.303 E2.58619 ; perimeter
G1 X178.753 Y186.403 E2.59447 ; perimeter
G1 X178.621 Y186.424 E2.59956 ; perimeter
G1 X164.509 Y186.917 E3.13724 ; perimeter
G1 X164.279 Y186.875 E3.14614 ; perimeter
G1 X164.042 Y186.686 E3.15768 ; perimeter
G1 X163.942 Y186.412 E3.16879 ; perimeter
G1 X163.804 Y182.459 E3.3194 ; perimeter
G1 X163.448 Y172.275 E3.70742 ; perimeter
G1 X163.509 Y172.002 E3.71807 ; perimeter
G1 X163.637 Y171.84 E3.72593 ; perimeter
G1 X163.836 Y171.73 E3.73459 ; perimeter
G1 X163.978 Y171.706 E3.74007 ; perimeter
G1 X178.09 Y171.214 E4.27775 ; perimeter
G1 X178.117 Y171.22 E4.2788 ; perimeter
M204 S1000 ; adjust acceleration
G1 X178.117 Y171.22 F10200 ; move to first perimeter point
G1 X178.103 Y171.58 ; move to first perimeter point
M204 S500 ; adjust acceleration
;TYPE:External perimeter
G1 F1200
G1 X178.243 Y171.638 E4.28457 ; perimeter
G1 X178.292 Y171.756 E4.28944 ; perimeter
G1 X178.785 Y185.869 E4.82716 ; perimeter
G1 X178.717 Y186.018 E4.8334 ; perimeter
G1 X178.608 Y186.058 E4.83782 ; perimeter
G1 X164.496 Y186.551 E5.3755 ; perimeter
G1 X164.371 Y186.507 E5.38055 ; perimeter
G1 X164.307 Y186.374 E5.38617 ; perimeter
G1 X164.17 Y182.446 E5.53583 ; perimeter
G1 X163.814 Y172.262 E5.92385 ; perimeter
G1 X163.877 Y172.117 E5.92987 ; perimeter
G1 X163.991 Y172.073 E5.93452 ; perimeter
G1 X178.043 Y171.582 E6.46991 ; perimeter
M204 S1000 ; adjust acceleration
;WIPE_START
G1 F8160
G1 X178.103 Y171.58 E6.45523 ; wipe and retract
G1 X178.243 Y171.638 E6.41818 ; wipe and retract
G1 X178.292 Y171.756 E6.38694 ; wipe and retract
G1 X178.566 Y179.592 E4.46991 ; wipe and retract
;WIPE_END
G92 E0 ; reset extrusion distance
G1 Z.85 F10200 ; move to first perimeter point
G1 X179.159 Y190.369 ; move to first perimeter point
G1 Z.25 ; move to first perimeter point
G1 E2 F2100 ;  ; unretract
M204 S500 ; adjust acceleration
;TYPE:Perimeter
G1 F1200
G1 X179.295 Y190.583 E2.00965 ; perimeter
G1 X179.321 Y190.732 E2.01541 ; perimeter
G1 X179.814 Y204.844 E2.55309 ; perimeter
G1 X179.743 Y205.134 E2.56446 ; perimeter
G1 X179.563 Y205.325 E2.57445 ; perimeter
G1 X179.284 Y205.413 E2.58559 ; perimeter
G1 X165.172 Y205.905 E3.12327 ; perimeter
G1 X164.935 Y205.861 E3.13245 ; perimeter
G1 X164.722 Y205.697 E3.14269 ; perimeter
G1 X164.62 Y205.491 E3.15144 ; perimeter
G1 X164.576 Y204.584 E3.18602 ; perimeter
G1 X164.111 Y191.263 E3.69356 ; perimeter
G1 X164.188 Y190.963 E3.70535 ; perimeter
G1 X164.333 Y190.802 E3.7136 ; perimeter
G1 X164.641 Y190.695 E3.72602 ; perimeter
G1 X178.753 Y190.202 E4.2637 ; perimeter
G1 X179 Y190.251 E4.27329 ; perimeter
G1 X179.117 Y190.329 E4.27864 ; perimeter
M204 S1000 ; adjust acceleration
G1 X179.117 Y190.329 F10200 ; move to first perimeter point
G1 X178.955 Y190.745 ; move to first perimeter point
M204 S500 ; adjust acceleration
;TYPE:External perimeter
G1 F1200
G1 X179.448 Y204.857 E4.81632 ; perimeter
G1 X179.397 Y204.991 E4.82178 ; perimeter
G1 X179.272 Y205.046 E4.82698 ; perimeter
G1 X165.159 Y205.539 E5.3647 ; perimeter
G1 X165.02 Y205.482 E5.37042 ; perimeter
G1 X164.97 Y205.363 E5.37533 ; perimeter
G1 X164.477 Y191.25 E5.91305 ; perimeter
G1 X164.503 Y191.15 E5.91698 ; perimeter
G1 X164.654 Y191.061 E5.92365 ; perimeter
G1 X178.766 Y190.568 E6.46133 ; perimeter
G1 X178.897 Y190.617 E6.46666 ; perimeter
G1 X178.93 Y190.69 E6.46971 ; perimeter
M204 S1000 ; adjust acceleration
;WIPE_START
G1 F8160
G1 X178.955 Y190.745 E6.45494 ; wipe and retract
G1 X179.239 Y198.86 E4.46971 ; wipe and retract
;WIPE_END
G92 E0 ; reset extrusion distance
G1 Z.85 F10200 ; move to first perimeter point
G1 X159.396 Y186.667 ; move to first perimeter point
G1 Z.25 ; move to first perimeter point
G1 E2 F2100 ;  ; unretract
M204 S500 ; adjust acceleration
;TYPE:Perimeter
G1 F1200
G1 X159.428 Y186.753 E2.00349 ; perimeter
G1 X160.413 Y200.839 E2.54116 ; perimeter
G1 X160.399 Y201.007 E2.54758 ; perimeter
G1 X160.246 Y201.273 E2.55926 ; perimeter
G1 X160.034 Y201.4 E2.56867 ; perimeter
G1 X159.082 Y201.483 E2.60506 ; perimeter
G1 X148.125 Y202.249 E3.02329 ; perimeter
G1 X145.817 Y202.411 E3.11139 ; perimeter
G1 X145.587 Y202.378 E3.12024 ; perimeter
G1 X145.355 Y202.213 E3.13108 ; perimeter
G1 X145.25 Y202.014 E3.13965 ; perimeter
G1 X144.245 Y187.815 E3.68167 ; perimeter
G1 X144.261 Y187.638 E3.68844 ; perimeter
G1 X144.395 Y187.398 E3.69891 ; perimeter
G1 X144.634 Y187.25 E3.70961 ; perimeter
G1 X144.755 Y187.228 E3.71429 ; perimeter
G1 X158.841 Y186.243 E4.25196 ; perimeter
G1 X159.082 Y186.28 E4.26124 ; perimeter
G1 X159.32 Y186.463 E4.27267 ; perimeter
G1 X159.375 Y186.611 E4.27868 ; perimeter
M204 S1000 ; adjust acceleration
G1 X159.375 Y186.611 F10200 ; move to first perimeter point
G1 X158.867 Y186.608 ; move to first perimeter point
M204 S500 ; adjust acceleration
;TYPE:External perimeter
G1 F1200
G1 X158.997 Y186.65 E4.28388 ; perimeter
G1 X159.063 Y186.778 E4.28936 ; perimeter
G1 X160.048 Y200.865 E4.82707 ; perimeter
G1 X159.992 Y201.009 E4.83295 ; perimeter
G1 X159.878 Y201.06 E4.83771 ; perimeter
G1 X148.099 Y201.884 E5.28732 ; perimeter
G1 X145.791 Y202.045 E5.37542 ; perimeter
G1 X145.675 Y202.014 E5.37999 ; perimeter
G1 X145.596 Y201.875 E5.38608 ; perimeter
G1 X144.611 Y187.789 E5.92375 ; perimeter
G1 X144.661 Y187.65 E5.92937 ; perimeter
G1 X144.781 Y187.593 E5.93443 ; perimeter
G1 X158.807 Y186.613 E6.46981 ; perimeter
M204 S1000 ; adjust acceleration
;WIPE_START
G1 F8160
G1 X158.867 Y186.608 E6.45509 ; wipe and retract
G1 X158.997 Y186.65 E6.42169 ; wipe and retract
G1 X159.063 Y186.778 E6.38648 ; wipe and retract
G1 X159.61 Y194.598 E4.46981 ; wipe and retract
;WIPE_END
G92 E0 ; reset extrusion distance
G1 Z.85 F10200 ; move to first perimeter point
G1 X139.887 Y188.133 ; move to first perimeter point
G1 Z.25 ; move to first perimeter point
G1 E2 F2100 ;  ; unretract
M204 S500 ; adjust acceleration
;TYPE:Perimeter
G1 F1200
G1 X139.88 Y188.246 E2.00431 ; perimeter
G1 X139.747 Y188.497 E2.01513 ; perimeter
G1 X139.517 Y188.645 E2.02554 ; perimeter
G1 X139.402 Y188.67 E2.03002 ; perimeter
G1 X125.358 Y190.146 E2.56773 ; perimeter
G1 X125.125 Y190.12 E2.57666 ; perimeter
G1 X124.974 Y190.041 E2.58315 ; perimeter
G1 X124.793 Y189.811 E2.59429 ; perimeter
G1 X124.754 Y189.657 E2.60034 ; perimeter
G1 X123.278 Y175.613 E3.13805 ; perimeter
G1 X123.321 Y175.337 E3.14869 ; perimeter
G1 X123.437 Y175.166 E3.15656 ; perimeter
G1 X123.627 Y175.043 E3.16518 ; perimeter
G1 X123.767 Y175.009 E3.17067 ; perimeter
G1 X137.811 Y173.533 E3.70838 ; perimeter
G1 X138.069 Y173.568 E3.71829 ; perimeter
G1 X138.221 Y173.659 E3.72504 ; perimeter
G1 X138.38 Y173.879 E3.73538 ; perimeter
G1 X138.415 Y174.022 E3.74099 ; perimeter
G1 X139.394 Y183.342 E4.09783 ; perimeter
G1 X139.891 Y188.066 E4.2787 ; perimeter
G1 X139.89 Y188.073 E4.27897 ; perimeter
M204 S1000 ; adjust acceleration
G1 X139.89 Y188.073 F10200 ; move to first perimeter point
G1 X139.526 Y188.104 ; move to first perimeter point
M204 S500 ; adjust acceleration
;TYPE:External perimeter
G1 F1200
G1 X139.479 Y188.248 E4.28474 ; perimeter
G1 X139.363 Y188.305 E4.28966 ; perimeter
G1 X125.32 Y189.781 E4.82733 ; perimeter
G1 X125.192 Y189.747 E4.83237 ; perimeter
G1 X125.119 Y189.618 E4.83801 ; perimeter
G1 X123.643 Y175.575 E5.37568 ; perimeter
G1 X123.695 Y175.426 E5.38169 ; perimeter
G1 X123.806 Y175.374 E5.38636 ; perimeter
G1 X137.849 Y173.898 E5.92403 ; perimeter
G1 X137.986 Y173.94 E5.92949 ; perimeter
G1 X138.05 Y174.061 E5.9347 ; perimeter
G1 X139.03 Y183.38 E6.2915 ; perimeter
G1 X139.52 Y188.044 E6.47007 ; perimeter
M204 S1000 ; adjust acceleration
;WIPE_START
G1 F8160
G1 X139.526 Y188.104 E6.45533 ; wipe and retract
G1 X139.479 Y188.248 E6.4183 ; wipe and retract
G1 X139.363 Y188.305 E6.3867 ; wipe and retract
G1 X131.566 Y189.125 E4.47007 ; wipe and retract
;WIPE_END
G92 E0 ; reset extrusion distance
G1 Z.85 F10200 ; move to first perimeter point
G1 X143.918 Y183.008 ; move to first perimeter point
G1 Z.25 ; move to first perimeter point
G1 E2 F2100 ;  ; unretract
M204 S500 ; adjust acceleration
;TYPE:Perimeter
G1 F1200
G1 X143.905 Y182.947 E2.00237 ; perimeter
G1 X142.92 Y168.861 E2.54004 ; perimeter
G1 X142.975 Y168.58 E2.55094 ; perimeter
G1 X143.175 Y168.358 E2.56232 ; perimeter
G1 X143.43 Y168.274 E2.57254 ; perimeter
G1 X157.516 Y167.289 E3.11021 ; perimeter
G1 X157.788 Y167.34 E3.12075 ; perimeter
